!!!COM: Chopin, Frederic
!!!CDT: 1810///-1849///
!!!OTL: Scherzo in B-flat Minor
!!!OPS: Op. 31
!!!OMD: Presto
**kern	**kern	**dynam
*staff2	*staff1	*staff1
*Ipiano	*Ipiano	*Ipiano
=1-	=1-	=1-
*clefF4	*clefG2	*clefG2
*k[b-e-a-d-g-]	*k[b-e-a-d-g-]	*k[b-e-a-d-g-]
*b-:	*b-:	*b-:
*M3/4	*M3/4	*M3/4
*MM300	*MM300	*MM300
(2BB-/	(2B-/	.
12AAn/L	12An/L	.
12BB-/	12B-/	.
12D-/J	12d-/J	.
=2	=2	=2
&(4F\&)	4f/)	.
4r	4r	.
12AAn/L	(12An/L	.
12BB-/	12B-/	.
12D-/J	12d-/J	.
=3	=3	=3
&(4F\&)	4f/)	.
4r	4r	.
4r	4r	.
=4	=4	=4
2.r	2.r	.
=5	=5	=5
4BBB-'/ 4BB-'/	4B-'/	ff
4r	4r	.
4r	4r	.
*clefG2	*	*
=6	=6	=6
[2.B-/ [2.c/ [2.e-/ [2.g-/ [2.b-/	[2.b-\ [2.gg-\ ([2.bb-\	.
=7	=7	=7
2.B-/] 2.c/] 2.e-/] 2.g-/] 2.b-/]	2.b-\] 2.gg-\] 2.bb-\]	.
=8	=8	=8
4.B-/ 4.c/ 4.e-/ 4.g-/ 4.b-/	4.e-/ 4.cc/ 4.ee-/	.
8B-/ 8c/ 8e-/ 8g-/ 8b-/	8f\ 8cc\ 8ff\	.
4B-/ 4c/ 4e-/ 4g-/ 4b-/	4g-\ 4cc\ 4gg-\	.
=9	=9	=9
4B-''/ 4d-''/ 4f''/ 4b-''/	4f''\ 4dd-''\ 4ff''\)	.
4r	4r	.
*clefF4	*	*
12AAn/L	(12An/L	pp
12BB-/	12B-/	.
12D-/J	12d-/J	.
=10	=10	=10
&(4F\&)	4f/)	.
4r	4r	.
12AAn/L	(12An/L	.
12BB-/	12B-/	.
12D-/J	12d-/J	.
=11	=11	=11
&(4F\&)	4f/)	.
4r	4r	.
4r	4r	.
=12	=12	=12
2.r	2.r	.
=13	=13	=13
4AAA-'/ 4AA-'/	4A-'/	ff
4r	4r	.
4r	4r	.
*clefG2	*	*
=14	=14	=14
[2.A-/ [2.f/ [2.dd-/	[2.a-\ [2.ff\ ([2.aa-\	.
=15	=15	=15
2.A-/] 2.f/] 2.dd-/]	2.a-\] 2.ff\] 2.aa-\]	.
=16	=16	=16
4.A-/ 4.e-/ 4.g-/ 4.a-/	4.e-/ 4.cc/ 4.ee-/	.
8A-/ 8e-/ 8g-/ 8a-/	8f\ 8cc\ 8ff\	.
4A-/ 4e-/ 4g-/ 4a-/	4g-\ 4cc\ 4gg-\	.
=17	=17	=17
4d-/ 4f/ 4a-/	4f''\ 4dd-''\ 4ff''\)	.
4r	4r	.
4r	4r	.
*clefF4	*	*
=18	=18	=18
2F^\ 2c^\ 2f^\	2an\ 2ff\	.
4r	4r	.
=19	=19	=19
2FF/ 2C/ 2F/	2An^/ 2f^/	.
4r	4r	.
=20	=20	=20
([2.FFF/ [2.FF/	2.r	.
=21	=21	=21
2.FFF/_ 2.FF/_	2.r	.
=22	=22	=22
4FFF/] 4FF/]	2.r	.
&(4GGG-'/&)) 4GG-'/	.	.
4r	.	.
=23	=23	=23
2.r	2.r	.
=24	=24	=24
2.r	2.r	.
=25	=25	=25
4r	4r	.
4r	4r	.
12AAn/L	(12An/L	pp
12BB-/	12B-/	.
12D-/J	12d-/J	.
=26	=26	=26
&(4F\&)	4f/)	.
4r	4r	.
12AAn/L	(12An/L	.
12BB-/	12B-/	.
12D-/J	12d-/J	.
=27	=27	=27
&(4F\&)	4f/)	.
4r	4r	.
4r	4r	.
=28	=28	=28
2.r	2.r	.
=29	=29	=29
4BBB-'/ 4BB-'/	4B-'/	ff
4r	4r	.
4r	4r	.
*clefG2	*	*
=30	=30	=30
[2.B-/ [2.c/ [2.e-/ [2.g-/ [2.b-/	[2.b-\ [2.gg-\ ([2.bb-\	.
=31	=31	=31
4.B-/] 4.c/] 4.e-/] 4.g-/] 4.b-/]	4.b-\] 4.gg-\] 4.bb-\]	.
8B-/ 8c/ 8e-/ 8g-/ 8b-/	8e-/ 8cc/ 8ee-/	.
4B-/ 4c/ 4e-/ 4g-/ 4b-/	4e-/ 4cc/ 4ee-/	.
=32	=32	=32
4.B-/ 4.c/ 4.e-/ 4.g-/ 4.b-/	4.e-/ 4.cc/ 4.ee-/	.
8B-/ 8c/ 8e-/ 8g-/ 8b-/	8f\ 8cc\ 8ff\	.
4B-/ 4c/ 4e-/ 4g-/ 4b-/	4g-\ 4cc\ 4gg-\	.
=33	=33	=33
4B-''/ 4f''/ 4b-''/	4f''\ 4dd-''\ 4ff''\)	.
4r	4r	.
*clefF4	*	*
12AAn/L	(12An/L	pp
12BB-/	12B-/	.
12D-/J	12d-/J	.
=34	=34	=34
&(4F\&)	4f/)	.
4r	4r	.
12AAn/L	(12An/L	.
12BB-/	12B-/	.
12D-/J	12d-/J	.
=35	=35	=35
&(4F\&)	4f/)	.
4r	4r	.
4r	4r	.
=36	=36	=36
2.r	2.r	.
*	*clefF4	*clefF4
=37	=37	=37
4CCC'/ 4CC'/	4C'/	ff
4r	4r	.
4r	4r	.
*clefG2	*clefG2	*clefG2
=38	=38	=38
[2.c/ [2.f/ [2.a-/ [2.cc/	[2.cc\ [2.aa-\ ([2.ccc\	.
=39	=39	=39
2.c/] 2.f/] 2.a-/] 2.cc/]	2.cc\] 2.aa-\] 2.ccc\]	.
=40	=40	=40
4.c/ 4.en/ 4.b-/ 4.cc/	4.gn\ 4.een\ 4.ggn\	.
8c/ 8e/ 8b-/ 8cc/	8a-\ 8ee\ 8aa-\	.
4c/ 4e/ 4b-/ 4cc/	4b-\ 4ee\ 4bb-\	.
=41	=41	=41
4f/ 4a-/ 4cc/	4a-'\ 4ff'\ 4aa-'\)	.
4r	4r	.
4r	4r	.
*clefF4	*	*
=42	=42	=42
2F^\ 2c^\ 2f^\	2a-\ 2cc\ 2ff\ 2aa-\	.
4r	4r	.
=43	=43	=43
2FF/ 2C/ 2F/	2A-^/ 2c^/ 2f^/ 2a-^/	.
4r	4r	.
=44	=44	=44
([2.EEEn^/ [2.EEn^/	2.r	.
=45	=45	=45
2.EEE/_ 2.EE/_	2.r	.
=46	=46	=46
4EEE/] 4EE/]	2.r	.
&(4FFF'/&)) 4FF'/	.	.
4r	.	.
=47	=47	=47
2.r	2.r	.
=48	=48	=48
2.r	2.r	.
=49	=49	=49
4DDD-/ 4DD-/	([2.fff\	ff
4r	.	.
4AA-\ 4A-\	.	.
=50	=50	=50
4F\ &(4d-\&)	4fff\]	.
4r	8eee-\L	.
.	8ddd-\	.
4AA-\ 4A-\	8aa-\	.
.	8ff\J	.
=51	=51	=51
4F\ &(4d-\&)	8eee-\L	.
.	8ddd-\	.
4r	8aa-\	.
.	8ff\	.
4r	8ee-\	.
.	8dd-\J	.
=52	=52	=52
2.r	4a-/)	.
.	4r	.
.	4r	.
=53	=53	=53
4AAA-/ 4AA-/	(8cc\L	p
.	8dd-\	.
4r	8ee-\	.
.	8ff\	.
4r	8gg-\	.
.	8aa-\J	.
=54	=54	=54
4Gn\ 4c\ (4g-\	8bb--'\)	.
.	8r	.
&(4A-\&) 4c\ 4g-\	4r	.
4A-\ 4c\ 4g-\)	4r	.
=55	=55	=55
2.r	(8bb--\L	.
.	8aa-\	.
.	8ggn\	.
.	8gg-\	.
.	8ff\	.
.	8ff-\J	.
=56	=56	=56
4B--\ 4c\ (4g-\	8ee-'\)	.
.	8r	.
&(4A-\&) 4c\ 4g-\	4r	.
4A-\ 4c\ 4g-\)	4r	.
=57	=57	=57
4DDD-/ 4DD-/	([2.fff\	ff
4r	.	.
4AA-\ 4A-\	.	.
=58	=58	=58
4F\ &(4d-\&)	4fff\]	.
4r	8eee-\L	.
.	8ddd-\	.
4AA-\ 4A-\	8aa-\	.
.	8ff\J	.
=59	=59	=59
4F\ &(4d-\&)	8eee-\L	.
.	8ddd-\	.
4r	8aa-\	.
.	8ff\	.
4r	8ee-\	.
.	8dd-\J	.
=60	=60	=60
2.r	4a-/)	.
.	4r	.
.	4r	.
=61	=61	=61
2.AA-\ 2.E-\ 2.G-\	(8cc\L	pp
.	8dd-\	.
.	8ee-\	.
.	8ff\	.
.	8gg-\	.
.	8aa-\J	.
*clefG2	*	*
=62	=62	=62
8c/L	8bb--'\)	.
8d-/	8r	.
8e-/	4r	.
8f/	.	.
8g-/	4r	.
8a-/J	.	.
=63	=63	=63
&(8b--'\&)	(8bb--\L	.
8r	8aa-\	.
4r	8ggn\	.
.	8gg-\	.
4r	8ff\	.
.	8ff-\J	.
*clefF4	*	*
=64	=64	=64
(8B--\L	8ee-\)	.
8A-\	8r	.
8Gn\	4r	.
8G-\	.	.
8F\	4r	.
8E-\J	.	.
=65	=65	=65
*^	*^	*
(8D-\L)	8D-/	[2.ff/	2.cc-\	.
*v	*v	*	*	*
8A-\	.	.	.
8d-\	.	.	.
8f\	.	.	.
8d-\	.	.	.
8A-\J)	.	.	.
=66	=66	=66	=66
*^	*	*	*
(8D-\L	8D-/	4ff/]	2.cc\	.
*v	*v	*	*	*
8c-\	.	.	.
8d-\	4.ee-/	.	.
8f\	.	.	.
8d-\	.	.	.
8c-\J)	8dd-/	.	.
=67	=67	=67	=67
*^	*	*	*
(8G-\L	8G-/	2.dd-/	2.cc-\	.
*v	*v	*	*	*
8c-\	.	.	.
8d-\	.	.	.
8g-\	.	.	.
8d-\)	.	.	.
8c-\J	.	.	.
=68	=68	=68	=68
*^	*	*	*
(8D-\L	8D-/	[2.gg-/	2.b-\	.
*v	*v	*	*	*
8B-\	.	.	.
8d-\	.	.	.
8g-\	.	.	.
8d-\	.	.	.
8B-\J)	.	.	.
=69	=69	=69	=69
*^	*	*	*
(8A-\L	8A-/	2gg-/]	[2.cc-^\	.
*v	*v	*	*	*
8c-\	.	.	.
8d-\	.	.	.
8a-\	.	.	.
8d-\	4ff/	.	.
8c-\J)	.	.	.
=70	=70	=70	=70
*^	*	*	*
(8D-\L	8D-/	4ff/	2.cc-\]	.
*v	*v	*	*	*
8c-\	.	.	.
8d-\	4ee-/	.	.
8f\	.	.	.
8d-\	4dd-/	.	.
8c-\J)	.	.	.
=71	=71	=71	=71
*^	*	*	*
8G-\L	(8G-/	2.b-\	2.dd-\ 2.bb-\	.
*v	*v	*	*	*
8B-\	.	.	.
8d-\	.	.	.
8g-\	.	.	.
8d-\	.	.	.
8B-\J)	.	.	.
=72	=72	=72	=72
*^	*	*	*
8F-\L	(8F-/	2bb-/	2.a-\ 2.dd-\	.
*v	*v	*	*	*
8B-\	.	.	.
8d-\	.	.	.
8a-\	.	.	.
8d-\	4bb-/	.	.
8B-\J)	.	.	.
=73	=73	=73	=73
!!(gnq/LL	.	.
!!dd-q/JJ	.	.
*^	*	*	*
8E-\L	8E-/	(2bb-/)	[2.dd-\	.
*v	*v	*	*	*
8B-\	.	.	.
8d-\	.	.	.
8gn\	.	.	.
8d-\	[4ee-/	.	.
8B-\J	.	.	.
=74	=74	=74	=74
*^	*	*	*
8Gn\L	8Gn/	4ee-/]	2.dd-\]	.
*v	*v	*	*	*
8d-\	.	.	.
8e-\	4.ff/	.	.
8b-\	.	.	.
8e-\	.	.	.
8d-\J	8ee-/)	.	.
=75	=75	=75	=75
*^	*	*	*
8A-\L	8A-/	2.ee-/	(2.dd-\	.
*v	*v	*	*	*
8d-\	.	.	.
8e-\	.	.	.
8a-\	.	.	.
8e-\	.	.	.
8d-\J	.	.	.
=76	=76	=76	=76
*^	*	*	*
8E-\L	8E-/	[2.aa-/	2.cc^\	.
*v	*v	*	*	*
8c\	.	.	.
8e-\	.	.	.
8a-\	.	.	.
8e-\	.	.	.
8c\J	.	.	.
=77	=77	=77	=77
*^	*	*	*
8B-\L	8B-/	4aa-/]	[2.dd-\	.
*v	*v	*	*	*
8d-\	.	.	.
8e-\	4ggn/	.	.
8b-\	.	.	.
8e-\	4ff/	.	.
8d-\J	.	.	.
=78	=78	=78	=78
*^	*	*	*
8E-\L	8E-/	4ggn/	2.dd-\]	.
*v	*v	*	*	*
8d-\	.	.	.
8e-\	4.ff/	.	.
8gn\	.	.	.
8e-\	.	.	.
8d-\J	8ee-/	.	.
=79	=79	=79	=79
*^	*	*	*
8A-\L	8A-/	2.ccc/	[2.cc\	.
*v	*v	*	*	*
8c\	.	.	.
8e-\	.	.	.
8a-\	.	.	.
8e-\	.	.	.
8c\J	.	.	.
=80	=80	=80	=80
*^	*	*	*
8G\L	2.Gn/	2ccc/	2.cc\]	.
8A-\	.	.	.	.
8c\	.	.	.	.
8e-\	.	.	.	.
8c\	.	4ccc/)	.	.
8A-\J	.	.	.	.
*	*	*v	*v	*
=81	=81	=81	=81
8G-\L	2.G-/	([2.ccc\	f
8A-\	.	.	.
8c\	.	.	.
8e-\	.	.	.
8c\	.	.	.
8A-\J	.	.	.
=82	=82	=82	=82
8G-\L	2.G-/	4ccc\]	.
8A-\	.	.	.
8c\	.	4.bb-\	.
8e-\	.	.	.
8c\	.	.	.
8A-\J	.	8aa-\	.
=83	=83	=83	=83
8F\L	2.F/	2.aa-\	.
8A-\	.	.	.
8d-\	.	.	.
8f\	.	.	.
8d-\	.	.	.
8A-\J	.	.	.
=84	=84	=84	=84
8F\L	8F/	2.ddd-\	.
*v	*v	*	*
8A-\	.	.
8d-\	.	.
8a-\	.	.
8d-\	.	.
8A-\J	.	.
=85	=85	=85
*^	*	*
8E-\L	8E-/	2ddd-\	.
*v	*v	*	*
8A-\	.	.
8c\	.	.
8g-\	.	.
8c\	4ccc\	.
8A-\J	.	.
=86	=86	=86
*^	*	*
8E-\L	8E-/	4ccc\	.
*v	*v	*	*
8A-\	.	.
8c\	4.bb-\	.
8g-\	.	.
8c\	.	.
8A-\J	8aa-\	.
=87	=87	=87
*^	*	*
8Dn\L	4Dn/	2.fff\	.
8A-\	.	.	.
*v	*v	*	*
8c-\	.	.
8f\	.	.
8c-\	.	.
8A-\J	.	.
=88	=88	=88
*^	*	*
8Dn\L	8Dn/	2fff\	.
*v	*v	*	*
8A-\	.	.
8B-\	.	.
8f\	.	.
8B-\	4fff\)	.
8A-\J	.	.
=89	=89	=89
*^	*	*
8E-\L	8E-/	(2.fff\	.
*v	*v	*	*
8G-\	.	.
8B-\	.	.
8e-\	.	.
8B-\	.	.
8G-\J	.	.
=90	=90	=90
*^	*	*
8GG-\L	8GG-/	4eee-\	.
*v	*v	*	*
8G-\	.	.
8B-\	4ddd-\	.
8e-\	.	.
8B-\	4bb-\	.
8G-\J	.	.
=91	=91	=91
*^	*	*
8AA-\L	8AA-/	2.ccc\	.
*v	*v	*	*
8F\	.	.
8A-\	.	.
8d-\	.	.
8A-\	.	.
8F\J	.	.
=92	=92	=92
*^	*	*
8AA-\L	8AA-/	4bb-\	.
*v	*v	*	*
8F\	.	.
8A-\	4aa-\	.
8d-\	.	.
8A-\	4ff\	.
8F\J	.	.
=93	=93	=93
*^	*	*
8AA-\L	8AA-/	4bb-\	.
*v	*v	*	*
8G-\	.	.
8A-\	4aa-\	.
8c\	.	.
8A-\	4gg-\	.
8G-\J	.	.
=94	=94	=94
*^	*	*
8AA-\L	8AA-/	4gg-\	.
*v	*v	*	*
8G-\	.	.
8A-\	4.ff\	.
8c\	.	.
8A-\	.	.
8G-\J	8een\	.
=95	=95	=95
*^	*	*
8D-\L	8D-/	2.een\	.
*v	*v	*	*
8A-\	.	.
8d-\	.	.
8f\	.	.
8d-\	.	.
8B-\J	.	.
=96	=96	=96
*^	*	*
8A-\L	8A-/	2ff\)	.
*v	*v	*	*
8d-\	.	.
8f\	.	.
8a-\	.	.
8f\	[4aa-\	.
8d-\J	.	.
=97	=97	=97
*^	*^	*
8G-\L	2.G-/	2.aa-/]	2a-^\	.
8A-\	.	.	.	.
8c\	.	.	.	.
8e-\	.	.	.	.
8c\	.	.	[4cc^\	.
8A-\J	.	.	.	.
*	*	*v	*v	*
=98	=98	=98	=98
8G-\L	2.G-/	4cc\] 4ccc\	.
8A-\	.	.	.
8c\	.	4.b-\ 4.bb-\	.
8e-\	.	.	.
8c\	.	.	.
8A-\J	.	8a-\ 8aa-\	.
=99	=99	=99	=99
8F\L	2.F/	2.a-\ [2.aa-\	.
8A-\	.	.	.
8d-\	.	.	.
8f\	.	.	.
8d-\	.	.	.
8A-\J	.	.	.
=100	=100	=100	=100
8F\L	8F/	2.dd-\ 2.aa-\] 2.ddd-\	.
*v	*v	*	*
8A-\	.	.
8d-\	.	.
8a-\	.	.
8d-\	.	.
8A-\J	.	.
=101	=101	=101
8E-\L 8E-/	[2aa-/ 2dd-\ 2ddd-\	.
8A-\	.	.
8c\	.	.
8g-\	.	.
8c\	4aa-_ 4cc\ 4ccc\	.
8A-\J	.	.
=102	=102	=102
*^	*	*
8E-\L	8E-/	4.cc\ 4.aa-\] 4.ccc\	.
*v	*v	*	*
8A-\	.	.
8c\	.	.
8g-\	8b-\ 8bb-\	.
8c\	4a-\ 4aa-\	.
8A-\J	.	.
=103	=103	=103
*^	*	*
8Dn\L	8Dn/	2.ff\ 2.aa-\ 2.fff\	.
*v	*v	*	*
8A-\	.	.
8c-\	.	.
8f\	.	.
8c-\	.	.
8A-\J	.	.
=104	=104	=104
*^	*	*
8Dn\L	8Dn/	2ff\ 2aa-\ 2fff\	.
*v	*v	*	*
8A-\	.	.
8B-\	.	.
8f\	.	.
8B-\	4ff\ 4aa-\ 4fff\	.
8A-\J	.	.
=105	=105	=105
*^	*	*
8E-\L	8E-/	2.ff\ 2.aa-\ (2.fff\	.
*v	*v	*	*
8G-\	.	.
8B-\	.	.
8e-\	.	.
8B-\	.	.
8G-\J	.	.
=106	=106	=106
*^	*	*
8GG-\L	8GG-/	4ee-\ 4gg-\ 4eee-\	.
*v	*v	*	*
8G-\	.	.
8B-\	4.dd-\ 4.gg-\ 4.ddd-\	.
8e-\	.	.
8B-\	.	.
8G-\J	8b-\ 8gg-\ 8bb-\	.
=107	=107	=107
*^	*	*
8AA-\L	8AA-/	2.cc\ 2.aa-\ 2.ccc\	.
*v	*v	*	*
8F\	.	.
8A-\	.	.
8d-\	.	.
8A-\	.	.
8F\J	.	.
=108	=108	=108
*^	*	*
8AA-\L	8AA-/	4b-\ 4gg-\ 4bb-\	.
*v	*v	*	*
8F\	.	.
8A-\	4a-\ 4ff\ 4aa-\	.
8d-\	.	.
8A-\	4b-\ 4ff\ 4bb-\	.
8F\J	.	.
=109	=109	=109
*^	*	*
8AA-\L	8AA-/	2cc-\ 2ff\ 2ccc-\	.
*v	*v	*	*
8F\	.	.
8A-\	.	.
8dn\	.	.
8A-\	4b-\ 4ff\ 4bb-\	.
8F\J	.	.
=110	=110	=110
*^	*	*
8AA-\L	8AA-/	[2.cc-\ [2.ff\ [2.ccc-\	.
*v	*v	*	*
8F\	.	.
8A-\	.	.
8dn\	.	.
8A-\	.	.
8F\J	.	.
=111	=111	=111
*^	*	*
8AA-\L	8AA-/	2cc-\] 2ff\] 2ccc-\]	.
*v	*v	*	*
8F\	.	.
8A-\	.	.
8dn\	.	.
8A-\	4b-\ 4ff\ 4bb-\	.
8F\J	.	.
=112	=112	=112
*^	*	*
8AA-\L	8AA-/	4cc-\ 4ff\ 4ccc-\	.
*v	*v	*	*
8F\	.	.
8A-\	4b-\ 4ff\ 4bb-\	.
8dn\	.	.
8A-\	4cc-\ 4ff\ 4ccc-\)	.
8F\J	.	.
=113	=113	=113
*^	*	*
8AA-\L	8AA-/	2cc-^\ 2gg-^\ (2ccc-^\	.
*v	*v	*	*
8E-\	.	.
8G-\	.	.
8e-\	.	.
8G-\	4b-\ 4gg-\ 4bb-\)	.
8E-\J	.	.
=114	=114	=114
*^	*	*
8AA-\L	8AA-/	[2.b-^\ [2.gg-^\ ([2.bb-^\	.
*v	*v	*	*
8E-\	.	.
8G-\	.	.
8e-\	.	.
8G-\	.	.
8E-\J	.	.
=115	=115	=115
*^	*	*
8AA-\L	8AA-/	4.b-\] 4.gg-\] 4.bb-\]	.
*v	*v	*	*
8E-\	.	.
8G-\	.	.
8c\	8cc\ 8gg-\ 8ccc\	.
8G-\	4cc\ 4gg-\ 4ccc\	.
8E-\J	.	.
=116	=116	=116
*^	*	*
8AA-\L	8AA-/	4.cc\ 4.gg-\ 4.ccc\	.
*v	*v	*	*
8E-\	.	.
8G-\	.	.
8c\	8ff\ 8aa-\ 8fff\	.
8G-\	4ee-\ 4gg-\ 4eee-\	.
8E-\J	.	.
=117	=117	=117
4DD-'/	4dd-'\ 4ff'\ 4ddd-'\)	ff
4r	4r	.
(8AA-/L	4r	.
8F/J	.	.
=118	=118	=118
4d-\)	8f^\L	.
.	8dd-\	.
4r	8aa-\	.
.	8f\	.
4r	8dd-\	.
.	8bb-\J	.
=119	=119	=119
4AAA-'/	4cc'\ &(4aa-'\&)	.
4r	4r	.
(8AA-/L	4r	.
8E-/J	.	.
=120	=120	=120
4c\)	8g-^\L	.
.	8cc\	.
4r	8aa-\	.
.	8g-\	.
4r	8cc\	.
.	8aa-\J	.
=121	=121	=121
4DD-'/	4dd-'\ &(4ff'\&)	.
4r	4r	.
(8AA-/L	4r	.
8F/J	.	.
=122	=122	=122
4d-\)	8f^\L	.
.	8dd-\	.
4r	8aa-\	.
.	8f\	.
4r	8dd-\	.
.	8bb-\J	.
=123	=123	=123
4AAA-'/	4cc'\ &(4aa-'\&)	.
4r	4r	.
(8AA-/L	4r	.
8E-/J	.	.
=124	=124	=124
4c\)	8g-^\L	.
.	8cc\	.
4r	8aa-\	.
.	8g-\	.
4r	8cc\	.
.	8aa-\J	.
=125	=125	=125
4DD-'/	4dd-'\ &(4ff'\&)	.
4r	4r	.
(8AA-/L	4r	.
8F/J	.	.
=126	=126	=126
4d-\)	8f\L	.
.	8dd-\	.
4r	8aa-\	.
.	8f\	.
4r	8dd-\	.
.	8aa-\J	.
=127	=127	=127
2.r	8ddd-\L	.
.	8ff\	.
.	8aa-\	.
.	8dd-\	.
.	8f\	.
.	8a-\J	.
=128	=128	=128
8d-/L	2.r	.
8F/	.	.
8A-/	.	.
8D-/	.	.
8FF/	.	.
8D-/J	.	.
=129	=129	=129
4DDD-'/ 4DD-'/	2.r	.
4r	.	.
4r	.	.
*clefG2	*	*
=130	=130	=130
2.d-^/ 2.dd-^/	2.dd-\ 2.ddd-\	.
=131	=131	=131
2.r	2.r	.
=132	=132	=132
2.r	2.r	.
=133	=133	=133
4r	4r	.
4r	4r	.
*clefF4	*	*
12AAn/L	(12An/L	p
12BB-/	12B-/	.
12D-/J	12d-/J	.
=134	=134	=134
&(4F\&)	4f/)	.
4r	4r	.
12AAn/L	(12An/L	.
12BB-/	12B-/	.
12D-/J	12d-/J	.
=135	=135	=135
&(4F\&)	4f/)	.
4r	4r	.
4r	4r	.
=136	=136	=136
2.r	2.r	.
=137	=137	=137
4BBB-'/ 4BB-'/	4B-'/	ff
4r	4r	.
4r	4r	.
*clefG2	*	*
=138	=138	=138
[2.B-/ [2.c/ [2.e-/ [2.g-/ [2.b-/	[2.b-\ [2.gg-\ ([2.bb-\	.
=139	=139	=139
2.B-/] 2.c/] 2.e-/] 2.g-/] 2.b-/]	2.b-\] 2.gg-\] 2.bb-\]	.
=140	=140	=140
4.B-/ 4.c/ 4.e-/ 4.g-/ 4.b-/	4.e-/ 4.cc/ 4.ee-/	.
8B-/ 8c/ 8e-/ 8g-/ 8b-/	8f\ 8cc\ 8ff\	.
4B-/ 4c/ 4e-/ 4g-/ 4b-/	4g-\ 4cc\ 4gg-\	.
=141	=141	=141
4B-''/ 4d-''/ 4f''/ 4b-''/	4f''\ 4dd-''\ 4ff''\)	.
4r	4r	.
*clefF4	*	*
12AA-/L	(12An/L	pp
12BB-/	12B-/	.
12D-/J	12d-/J	.
=142	=142	=142
&(4F\&)	4f/)	.
4r	4r	.
12AAn/L	(12An/L	.
12BB-/	12B-/	.
12D-/J	12d-/J	.
=143	=143	=143
&(4F\&)	4f/)	.
4r	4r	.
4r	4r	.
=144	=144	=144
2.r	2.r	.
=145	=145	=145
4AAA-'/ 4AA-'/	4A-'/	ff
4r	4r	.
4r	4r	.
*clefG2	*	*
=146	=146	=146
[2.A-/ [2.f/ [2.dd-/	[2.a-\ [2.ff\ [2.aa-\	.
=147	=147	=147
2.A-/] 2.f/] 2.dd-/]	2.a-\] 2.ff\] 2.aa-\]	.
=148	=148	=148
10.A-/ 10.e-/ 10.g-/ 10.a-/	10.e-/ 10.cc/ (10.ee-/	.
10.A-/ 10.e-/ 10.g-/ 10.a-/	10.en/ 10.cc/ 10.een/	.
10.A-/ 10.e-/ 10.g-/ 10.a-/	10.f\ 10.cc\ 10.ff\	.
10.A-/ 10.e-/ 10.g-/ 10.a-/	10.a-\ 10.cc\ 10.aa-\	.
&(10.A-/&) 10.e-/ 10.g-/ 10.a-/	10.g-\ 10.cc\ 10.gg-\	.
=149	=149	=149
4d-''/ 4f''/ 4a-''/	4f''\ 4dd-''\ 4ff''\)	.
4r	4r	.
4r	4r	.
*clefF4	*	*
=150	=150	=150
2F^\ 2c^\ 2f^\	2an\ 2ff\	.
4r	4r	.
=151	=151	=151
2FF^/ 2C^/ 2F^/	2An^/ 2f^/	.
4r	4r	.
=152	=152	=152
([2.FFF^/ [2.FF^/	2.r	.
=153	=153	=153
2.FFF/_ 2.FF/_	2.r	.
=154	=154	=154
4FFF/] 4FF/]	2.r	.
&(4GGG-'/&)) 4GG-'/	.	.
4r	.	.
=155	=155	=155
2.r	2.r	.
=156	=156	=156
2.r	2.r	.
=157	=157	=157
4r	4r	.
4r	4r	.
12AAn/L	(12An/L	pp
12BB-/	12B-/	.
12D-/J	12d-/J	.
=158	=158	=158
&(4F\&)	4f/)	.
4r	4r	.
12AAn/L	(12An/L	.
12BB-/	12B-/	.
12D-/J	12d-/J	.
=159	=159	=159
&(4F\&)	4f/)	.
4r	4r	.
4r	4r	.
=160	=160	=160
2.r	2.r	.
=161	=161	=161
4BBB-'/ 4BB-'/	4B-'/	ff
4r	4r	.
4r	4r	.
*clefG2	*	*
=162	=162	=162
[2.B-/ [2.c/ [2.e-/ [2.g-/ [2.b-/	[2.b-\ [2.gg-\ ([2.bb-\	.
=163	=163	=163
4.B-/] 4.c/] 4.e-/] 4.g-/] 4.b-/]	4.b-\] 4.gg-\] 4.bb-\]	.
8B-/ 8c/ 8e-/ 8g-/ 8b-/	8e-/ 8cc/ 8ee-/	.
4B-/ 4c/ 4e-/ 4g-/ 4b-/	4e-/ 4cc/ 4ee-/	.
=164	=164	=164
4.B-/ 4.c/ 4.e-/ 4.g-/ 4.b-/	4.e-/ 4.cc/ 4.ee-/	.
8B-/ 8c/ 8e-/ 8g-/ 8b-/	8f\ 8cc\ 8ff\	.
4B-/ 4c/ 4e-/ 4g-/ 4b-/	4g-\ 4cc\ 4gg-\	.
=165	=165	=165
4B-'/ 4d-'/ 4f'/ 4b-'/	4f'\ 4dd-'\ 4ff'\)	.
4r	4r	.
*clefF4	*	*
12AAn/L	(12An/L	pp
12BB-/	12B-/	.
12D-/J	12d-/J	.
=166	=166	=166
&(4F\&)	4f/)	.
4r	4r	.
12AAn/L	(12An/L	.
12BB-/	12B-/	.
12D-/J	12d-/J	.
=167	=167	=167
&(4F\&)	4f/)	.
4r	4r	.
4r	4r	.
=168	=168	=168
2.r	2.r	.
*	*clefF4	*clefF4
=169	=169	=169
4CCC'/ 4CC'/	4C'/	ff
4r	4r	.
4r	4r	.
*clefG2	*clefG2	*clefG2
=170	=170	=170
[2.c/ [2.f/ [2.a-/ [2.cc/	[2.cc\ [2.aa-\ [2.ccc\	.
=171	=171	=171
2.c/] 2.f/] 2.a-/] 2.cc/]	2.cc\] 2.aa-\] 2.ccc\]	.
=172	=172	=172
8.c/ 8.en/ 8.b-/ 8.cc/	8.dd-\ 8.ggn\ (8.ddd-\	.
8.c/ 8.e/ 8.b-/ 8.cc/	8.cc\ 8.gg\ 8.ccc\	.
8.c/ 8.e/ 8.b-/ 8.cc/	8.f\ 8.cc\ 8.ff\	.
8.c/ 8.e/ 8.b-/ 8.cc/	8.gn\ 8.cc\ 8.gg\	.
=173	=173	=173
&(4f'/&) 4a-'/ 4cc'/	4a-'\ 4cc'\ 4aa-'\)	.
4r	4r	.
4r	4r	.
*clefF4	*	*
=174	=174	=174
2F^\ 2c^\ 2f^\	2a-^\ 2cc^\ 2ff^\ 2aa-^\	.
4r	4r	.
=175	=175	=175
2FF^/ 2C^/ 2F^/	2A-^/ 2c^/ 2f^/ 2a-^/	.
4r	4r	.
=176	=176	=176
[2.EEEn^/ [2.EEn^/	2.r	.
=177	=177	=177
2.EEE/] 2.EE/]	2.r	.
*	*clefF4	*clefF4
=178	=178	=178
2.FFF/	2.FF/	.
=179	=179	=179
!!(DDDnq/LL
!!EEE-q/JJ)
!!FFFq/
!!(DDnq/LL	.
!!EE-q/JJ)	.
!!FFq/	.
[2.EEE-/	[2.EE-/	.
=180	=180	=180
2.EEE-/]	2.EE-/]	.
*	*clefG2	*clefG2
=181	=181	=181
4DDD-/ 4DD-/	([2.fff\	ff
4r	.	.
4AA-\ 4A-\	.	.
=182	=182	=182
4F\ &(4d-\&)	4fff\]	.
4r	8eee-\L	.
.	8ddd-\	.
4AA-\ 4A-\	8aa-\	.
.	8ff\J	.
=183	=183	=183
4F\ &(4d-\&)	8eee-\L	.
.	8ddd-\	.
4r	8aa-\	.
.	8ff\	.
4r	8ee-\	.
.	8dd-\J	.
=184	=184	=184
2.r	4a-/)	.
.	4r	.
.	4r	.
=185	=185	=185
4AAA-/ 4AA-/	(8cc\L	p
.	8dd-\	.
4r	8ee-\	.
.	8ff\	.
4r	8gg-\	.
.	8aa-\J	.
=186	=186	=186
4Gn\ 4c\ (4g-\	8bb--'\)	.
.	8r	.
&(4A-\&) 4c\ 4g-\	4r	.
4A-\ 4c\ 4g-\)	4r	.
=187	=187	=187
2.r	(8bb--\L	.
.	8aa-\	.
.	8ggn\	.
.	8gg-\	.
.	8ff\	.
.	8ff-\J	.
=188	=188	=188
4B--\ 4c\ (4g-\	8ee-'\)	.
.	8r	.
&(4A-\&) 4c\ 4g-\	4r	.
4A-\ 4c\ 4g-\)	4r	.
=189	=189	=189
4DDD-/ 4DD-/	([2.fff\	ff
4r	.	.
4AA-\ 4A-\	.	.
=190	=190	=190
4F\ &(4d-\&)	4fff\]	.
4r	8eee-\L	.
.	8ddd-\	.
4AA-\ 4A-\	8aa-\	.
.	8ff\J	.
=191	=191	=191
4F\ &(4d-\&)	8eee-\L	.
.	8ddd-\	.
4r	8aa-\	.
.	8ff\	.
4r	8ee-\	.
.	8dd-\J	.
=192	=192	=192
2.r	4a-/)	.
.	4r	.
.	4r	.
=193	=193	=193
2.AA-\ 2.E-\ 2.G-\	(8cc\L	pp
.	8dd-\	.
.	8ee-\	.
.	8ff\	.
.	8gg-\	.
.	8aa-\J	.
*clefG2	*	*
=194	=194	=194
8c/L	8bb--'\)	.
8d-/	8r	.
8e-/	4r	.
8f/	.	.
8g-/	4r	.
8a-/J	.	.
=195	=195	=195
&(8b--'\&)	(8bb--\L	.
8r	8aa-\	.
4r	8ggn\	.
.	8gg-\	.
4r	8ff\	.
.	8ff-\J	.
*clefF4	*	*
=196	=196	=196
(8B--\L	8ee-\)	.
8A-\	8r	.
8Gn\	4r	.
8G-\	.	.
8F\	4r	.
8E-\J	.	.
=197	=197	=197
*^	*^	*
8D-\L	(8D-/)	[2.ff/	[2.cc-\	.
*v	*v	*	*	*
8A-\	.	.	.
8d-\	.	.	.
8f\	.	.	.
8d-\	.	.	.
8A-\J)	.	.	.
=198	=198	=198	=198
*^	*	*	*
8D-\L	(8D-/	4ff/]	2.cc-\]	.
*v	*v	*	*	*
8c-\	.	.	.
8d-\	4.ee-/	.	.
8f\	.	.	.
8d-\	.	.	.
8c-\J)	8dd-/	.	.
=199	=199	=199	=199
*^	*	*	*
8G-\L	(8G-/	2.dd-/	2.cc-\	.
*v	*v	*	*	*
8c-\	.	.	.
8d-\	.	.	.
8g-\	.	.	.
8d-\	.	.	.
8c-\J)	.	.	.
=200	=200	=200	=200
*^	*	*	*
8D-\L	(8D-/	[2.gg-/	2.b-\	.
*v	*v	*	*	*
8B-\	.	.	.
8d-\	.	.	.
8g-\	.	.	.
8d-\	.	.	.
8B-\J)	.	.	.
=201	=201	=201	=201
*^	*	*	*
8A-\L	(8A-/	2gg-^/]	2.cc-\	.
*v	*v	*	*	*
8c-\	.	.	.
8d-\	.	.	.
8a-\	.	.	.
8d-\	4ff/	.	.
8c-\J)	.	.	.
=202	=202	=202	=202
*^	*	*	*
8D-\L	(8D-/	4ff/	2.cc\	.
*v	*v	*	*	*
8c-\	.	.	.
8d-\	4ee-/	.	.
8f\	.	.	.
8d-\	4dd-/	.	.
8c-\J)	.	.	.
*	*v	*v	*
=203	=203	=203
*^	*	*
8G-\L	(8G-/	2.b-\ 2.dd-\ 2.bb-\	.
*v	*v	*	*
8B-\	.	.
8d-\	.	.
8g-\	.	.
8d-\	.	.
8B-\J)	.	.
=204	=204	=204
*^	*^	*
8F-\L	(8F-/	2bb-/	2.a-\ 2.dd-\	.
*v	*v	*	*	*
8B-\	.	.	.
8d-\	.	.	.
8a-\	.	.	.
8d-\	4bb-/	.	.
8B-\J)	.	.	.
*	*v	*v	*
=205	=205	=205
!!(gnq/LL	.
!!dd-q/JJ	.
*^	*^	*
8E-\L	8E-/	2bb-/)	[2.dd-\	.
*v	*v	*	*	*
8B-\	.	.	.
8d-\	.	.	.
8gn\	.	.	.
8d-\	[4ee-/	.	.
8B-\J	.	.	.
=206	=206	=206	=206
*^	*	*	*
8Gn\L	8Gn/	4ee-/]	2.dd-\]	.
*v	*v	*	*	*
8d-\	.	.	.
8e-\	4.ff/	.	.
8b-\	.	.	.
8e-\	.	.	.
8d-\J	8ee-/	.	.
=207	=207	=207	=207
*^	*	*	*
8A-\L	8A-/	2.ee-/	2.dd-\	.
*v	*v	*	*	*
8d-\	.	.	.
8e-\	.	.	.
8a-\	.	.	.
8e-\	.	.	.
8d-\J	.	.	.
=208	=208	=208	=208
*^	*	*	*
8E-\L	8E-/	[2.aa-/	2.cc\	.
*v	*v	*	*	*
8c\	.	.	.
8e-\	.	.	.
8a-\	.	.	.
8e-\	.	.	.
8c\J	.	.	.
=209	=209	=209	=209
*^	*	*	*
8B-\L	8B-/	4aa-/]	[2.dd-\	.
*v	*v	*	*	*
8d-\	.	.	.
8e-\	4ggn/	.	.
8b-\	.	.	.
8e-\	4ff/	.	.
8d-\J	.	.	.
=210	=210	=210	=210
*^	*	*	*
8E-\L	8E-/	4ggn/	2.dd-\]	.
*v	*v	*	*	*
8d-\	.	.	.
8e-\	4.ff/	.	.
8gn\	.	.	.
8e-\	.	.	.
8d-\J	8ee-/	.	.
=211	=211	=211	=211
*^	*	*	*
8A-\L	8A-/	2.ccc/	[2.cc\	.
*v	*v	*	*	*
8c\	.	.	.
8e-\	.	.	.
8a-\	.	.	.
8e-\	.	.	.
8c\J	.	.	.
=212	=212	=212	=212
*^	*	*	*
8G\L	2.Gn/	2ccc/	2.cc\]	.
8A-\	.	.	.	.
8c\	.	.	.	.
8e-\	.	.	.	.
8c\	.	4ccc/	.	.
8A-\J	.	.	.	.
*	*	*v	*v	*
=213	=213	=213	=213
8G-\L	2.G-/	([2.ccc\	f
8A-\	.	.	.
8c\	.	.	.
8e-\	.	.	.
8c\	.	.	.
8A-\J	.	.	.
=214	=214	=214	=214
8G-\L	2.G-/	4ccc\]	.
8A-\	.	.	.
8c\	.	4.bb-\	.
8e-\	.	.	.
8c\	.	.	.
8A-\J	.	8aa-\	.
=215	=215	=215	=215
8F\L	2.F/	2.aa-\	.
8A-\	.	.	.
8d-\	.	.	.
8f\	.	.	.
8d-\	.	.	.
8A-\J	.	.	.
=216	=216	=216	=216
8F\L	8F/	2.ddd-\)	.
*v	*v	*	*
8A-\	.	.
8d-\	.	.
8a-\	.	.
8d-\	.	.
8A-\J	.	.
=217	=217	=217
*^	*	*
8E-\L	8E-/	(2ddd-\	.
*v	*v	*	*
8A-\	.	.
8c\	.	.
8g-\	.	.
8c\	4ccc\	.
8A-\J	.	.
=218	=218	=218
*^	*	*
8E-\L	8E-/	4ccc\	.
*v	*v	*	*
8A-\	.	.
8c\	4.bb-\	.
8g-\	.	.
8c\	.	.
8A-\J	8aa-\	.
=219	=219	=219
*^	*	*
8Dn\L	8Dn/	2.fff\	.
*v	*v	*	*
8A-\	.	.
8c-\	.	.
8f\	.	.
8c-\	.	.
8A-\J	.	.
=220	=220	=220
*^	*	*
8Dn\L	8Dn/	2fff\	.
*v	*v	*	*
8A-\	.	.
8B-\	.	.
8f\	.	.
8B-\	4fff\)	.
8A-\J	.	.
=221	=221	=221
*^	*	*
8E-\L	8E-/	(2.fff\	.
*v	*v	*	*
8G-\	.	.
8B-\	.	.
8e-\	.	.
8B-\	.	.
8G-\J	.	.
=222	=222	=222
*^	*	*
8GG-\L	8GG-/	4eee-\	.
*v	*v	*	*
8G-\	.	.
8B-\	4ddd-\	.
8e-\	.	.
8B-\	4bb-\	.
8G-\J	.	.
=223	=223	=223
*^	*	*
8AA-\L	8AA-/	2.ccc\	.
*v	*v	*	*
8F\	.	.
8A-\	.	.
8d-\	.	.
8A-\	.	.
8F\J	.	.
=224	=224	=224
*^	*	*
8AA-\L	8AA-/	4bb-\	.
*v	*v	*	*
8F\	.	.
8A-\	4aa-\	.
8d-\	.	.
8A-\	4ff\	.
8F\J	.	.
=225	=225	=225
*^	*	*
8AA-\L	8AA-/	4bb-\	.
*v	*v	*	*
8G-\	.	.
8A-\	4aa-\	.
8c\	.	.
8A-\	4gg-\	.
8G-\J	.	.
=226	=226	=226
*^	*	*
8AA-\L	8AA-/	4gg-\	.
*v	*v	*	*
8G-\	.	.
8A-\	4.ff\	.
8c\	.	.
8A-\	.	.
8G-\J	8een\	.
=227	=227	=227
*^	*	*
8D-\L	8D-/	2.een\	.
*v	*v	*	*
8A-\	.	.
8d-\	.	.
8f\	.	.
8d-\	.	.
8B-\J	.	.
=228	=228	=228
*^	*	*
8A-\L	8A-/	2ff\)	.
*v	*v	*	*
8d-\	.	.
8f\	.	.
8a-\	.	.
8f\	[4aa-\	.
8d-\J	.	.
=229	=229	=229
*^	*^	*
8G-\L	2.G-/	2.aa-/]	2a-^\	.
8A-\	.	.	.	.
8c\	.	.	.	.
8e-\	.	.	.	.
8c\	.	.	[4cc^\	.
8A-\J	.	.	.	.
*	*	*v	*v	*
=230	=230	=230	=230
8G-\L	2.G-/	4cc\] 4ccc\	.
8A-\	.	.	.
8c\	.	4.b-\ 4.bb-\	.
8e-\	.	.	.
8c\	.	.	.
8A-\J	.	8a-\ 8aa-\	.
=231	=231	=231	=231
8F\L	2.F/	2.a-\ (2.aa-\	.
8A-\	.	.	.
8d-\	.	.	.
8f\	.	.	.
8d-\	.	.	.
8A-\J	.	.	.
=232	=232	=232	=232
8F\L	8F/	2.dd-\ 2.aa-\ 2.ddd-\)	.
*v	*v	*	*
8A-\	.	.
8d-\	.	.
8a-\	.	.
8d-\	.	.
8A-\J	.	.
=233	=233	=233
*	*^	*
8E-\L 8E-/	2gg-/ 2aa-/	4.dd-\ 4.ddd-\	.
8A-\	.	.	.
8c\	.	.	.
8g-\	.	8cc\ 8ccc\	.
8c\	4ryy	4cc\ 4gg-\ 4aa-\ 4ccc\	.
8A-\J	.	.	.
*	*v	*v	*
=234	=234	=234
*^	*	*
8E-\L	8E-/	4.cc\ 4.gg-\ 4.aa-\ (4.ccc\	.
*v	*v	*	*
8A-\	.	.
8c\	.	.
8g-\	8b-\ 8gg-\ 8bb-\	.
8c\	4a-\ 4gg-\ 4aa-\	.
8A-\J	.	.
=235	=235	=235
*^	*	*
8Dn\L	8Dn/	2.ff\ 2.aa-\ 2.fff\	.
*v	*v	*	*
8A-\	.	.
8c-\	.	.
8f\	.	.
8c-\	.	.
8A-\J	.	.
=236	=236	=236
*^	*	*
8Dn\L	8Dn/	2ff\ 2aa-\ 2fff\	.
*v	*v	*	*
8A-\	.	.
8B-\	.	.
8f\	.	.
8B-\	4ff\ 4aa-\ 4fff\)	.
8A-\J	.	.
=237	=237	=237
*^	*	*
8E-\L	8E-/	2.ff\ 2.aa-\ (2.fff\	.
*v	*v	*	*
8G-\	.	.
8B-\	.	.
8e-\	.	.
8B-\	.	.
8G-\J	.	.
=238	=238	=238
*^	*	*
8GG-\L	8GG-/	4ee-\ 4gg-\ 4eee-\	.
*v	*v	*	*
8G-\	.	.
8B-\	4.dd-\ 4.gg-\ 4.ddd-\	.
8e-\	.	.
8B-\	.	.
8G-\J	8b-\ 8gg-\ 8bb-\)	.
=239	=239	=239
*^	*	*
8AA-\L	8AA-/	2.cc\ 2.aa-\ 2.ccc\	.
*v	*v	*	*
8F\	.	.
8A-\	.	.
8d-\	.	.
8A-\	.	.
8F\J	.	.
=240	=240	=240
*^	*	*
8AA-\L	8AA-/	4b-\ 4gg-\ 4bb-\	.
*v	*v	*	*
8F\	.	.
8A-\	4a-\ 4ff\ 4aa-\	.
8d-\	.	.
8A-\	4b-\ 4ff\ 4bb-\	.
8F\J	.	.
=241	=241	=241
*^	*	*
8AA-\L	8AA-/	2cc-\ 2ff\ 2ccc-\	.
*v	*v	*	*
8F\	.	.
8A-\	.	.
8dn\	.	.
8A-\	4b-\ 4ff\ 4bb-\	.
8F\J	.	.
=242	=242	=242
*^	*	*
8AA-\L	8AA-/	[2.cc-\ [2.ff\ [2.ccc-\	.
*v	*v	*	*
8F\	.	.
8A-\	.	.
8dn\	.	.
8A-\	.	.
8F\J	.	.
=243	=243	=243
*^	*	*
8AA-\L	8AA-/	2cc-\] 2ff\] 2ccc-\]	.
*v	*v	*	*
8F\	.	.
8A-\	.	.
8dn\	.	.
8A-\	4b-\ 4ff\ 4bb-\	.
8F\J	.	.
=244	=244	=244
*^	*	*
8AA-\L	8AA-/	4cc-\ 4ff\ 4ccc-\	.
*v	*v	*	*
8F\	.	.
8A-\	4b-\ 4ff\ 4bb-\	.
8dn\	.	.
8A-\	4cc-\ 4ff\ 4ccc-\	.
8F\J	.	.
=245	=245	=245
*^	*	*
8AA-\L	8AA-/	2cc-\ 2gg-\ (2ccc-\	.
*v	*v	*	*
8E-\	.	.
8G-\	.	.
8e-\	.	.
8G-\	4b-\ 4gg-\ 4bb-\)	.
8E-\J	.	.
=246	=246	=246
*^	*	*
8AA-\L	8AA-/	[2.b-^\ [2.gg-^\ ([2.bb-^\	.
*v	*v	*	*
8E-\	.	.
8G-\	.	.
8e-\	.	.
8G-\	.	.
8E-\J	.	.
=247	=247	=247
*^	*	*
8AA-\L	8AA-/	4.b-\] 4.gg-\] 4.bb-\]	.
*v	*v	*	*
8E-\	.	.
8G-\	.	.
8c\	8cc\ 8gg-\ 8ccc\	.
8G-\	4cc\ 4gg-\ 4ccc\	.
8E-\J	.	.
=248	=248	=248
*^	*	*
8AA-\L	8AA-/	4.cc\ 4.gg-\ 4.ccc\	.
*v	*v	*	*
8E-\	.	.
8G-\	.	.
8c\	8ff\ 8aa-\ 8fff\	.
8G-\	4ee-\ 4gg-\ 4eee-\	.
8E-\J	.	.
=249	=249	=249
4DD-'/	4dd-'\ 4ff'\ 4ddd-'\)	ff
4r	4r	.
(8AA-/L	4r	.
8F/J	.	.
=250	=250	=250
4d-\)	8f^\L	.
.	8dd-\	.
4r	8aa-\	.
.	8f\	.
4r	8dd-\	.
.	8bb-\J	.
=251	=251	=251
4AAA-'/	4cc\ &(4aa-\&)	.
4r	4r	.
(8AA-/L	4r	.
8E-/J	.	.
=252	=252	=252
4c\)	8g-^\L	.
.	8cc\	.
4r	8aa-\	.
.	8g-\	.
4r	8cc\	.
.	8aa-\J	.
=253	=253	=253
4DD-'/	4dd-'\ &(4ff'\&)	.
4r	4r	.
(8AA-/L	4r	.
8F/J	.	.
=254	=254	=254
4d-\)	8f^\L	.
.	8dd-\	.
4r	8aa-\	.
.	8f\	.
4r	8dd-\	.
.	8bb-\J	.
=255	=255	=255
4AAA-'/	4cc'\ &(4aa-'\&)	.
4r	4r	.
(8AA-/L	4r	.
8E-/J	.	.
=256	=256	=256
4c\)	8g-^\L	.
.	8cc\	.
4r	8aa-\	.
.	8g-\	.
4r	8cc\	.
.	8aa-\J	.
=257	=257	=257
4DDD-/	4dd-'\ &(4ff'\&)	.
4r	4r	.
(8AA-/L	4r	.
8F/J	.	.
=258	=258	=258
4d-\)	8f\L	.
.	8dd-\	.
4r	8aa-\	.
.	8f\	.
4r	8dd-\	.
.	8aa-\J	.
=259	=259	=259
2.r	8ddd-\L	.
.	8ff\	.
.	8aa-\	.
.	8dd-\	.
.	8f\	.
.	8a-\J	.
=260	=260	=260
*^	*	*
8d-/L	2.r	2.r	.
8F/	.	.	.
8A-/	.	.	.
8D-/	.	.	.
8FF/	.	.	.
8D-/J	.	.	.
*v	*v	*	*
=261	=261	=261
4DDD-'/ 4DD-'/	2.r	.
4r	.	.
4r	.	.
*clefG2	*	*
=262	=262	=262
2.d-^/ 2.dd-^/	2.dd-^\ 2.ddd-^\	.
=263	=263	=263
2.r	2.r	.
=264	=264	=264
2.r	2.r	.
*clefF4	*clefF4	*clefF4
=265	=265	=265
*k[f#c#g#]	*k[f#c#g#]	*k[f#c#g#]
2.AAA/ [2.AA/	2.E\ [2.c#\ (2.e\	.
=266	=266	=266
[2.DD/ 2.AA/_	[2.F#\ 2.c#\_ [2.f#\	.
=267	=267	=267
*	*^	*
2.DD/_ 2.AA/_	4c#/]	2.F#\_ 2.f#\_	.
.	4B/	.	.
.	4c#/	.	.
=268	=268	=268	=268
2.DD/] 2.AA/]	4e/	2.F#\] 2.f#\]	.
.	4.d/	.	.
.	8c#/	.	.
*	*v	*v	*
=269	=269	=269
2.AAA/ [2.AA/	2.E\ [2.c#\ 2.e\	.
=270	=270	=270
[2.DD/ 2.AA/_	[2.F#\ 2.c#\_ [2.f#\	.
=271	=271	=271
*	*^	*
2.DD/_ 2.AA/_	4c#/]	2.F#\_ 2.f#\_	.
.	4B/	.	.
.	4c#/	.	.
=272	=272	=272	=272
2.DD/] 2.AA/]	4e/	2.F#\] 2.f#\]	.
.	4.d/	.	.
.	8c#/	.	.
=273	=273	=273	=273
*^	*	*	*
[2.D/	[2.EE\	2.c#/	[2.G#\ [2.e\	.
=274	=274	=274	=274	=274
2D/]	2EE\]	2.e/]	2G#\] 2B\	.
4C#/	[4AA\	.	4A\	.
=275	=275	=275	=275	=275
&([2.E/&)	2.AA\_	[2.c#/	2.c#\	.
=276	=276	=276	=276	=276
2.E/]	2.AA\]	2.c#/])	2.c#\	.
*v	*v	*	*	*
*	*v	*v	*
*	*clefG2	*clefG2
=277	=277	=277
4r	(2.cc#\	p
4r	.	.
4E\ 4Gn\ 4A#\	.	.
=278	=278	=278
!!bq/LL	.
!!cc#q/JJ	.
4D\ 4F#\ &(4B\&)	4.b\	.
4r	.	.
.	8an/	.
4F#\ 4An\ 4d\	4b\	.
=279	=279	=279
2E#\ 2G#\ 2c#\	4.cc#\	.
.	8dd\	.
4En\ 4Gn\ 4A#\	4cc#\	.
=280	=280	=280
!!bq/LL	.
!!cc#q/JJ	.
4D\ 4F#\ &(4B\&)	4.b\	.
4r	.	.
.	8an/	.
4F#\ 4An\ 4d\	4b\	.
=281	=281	=281
4C#\ 4G#\ &(4e#\&)	8cc#/L)	.
.	(8c#/	.
4r	8cc#/	.
.	8g#/	.
4r	8cc#/	.
.	8g#/J	.
=282	=282	=282
4CC#'/	8gg#\L	.
.	8cc#\	.
4r	8gg#\	.
.	8cc#\	.
4r	8ccc#\	.
.	8gg#\J	.
=283	=283	=283
2.r	8cc#\L	.
.	8g#\	.
.	8gg#\	.
.	8cc#\	.
.	8gg#\	.
.	8cc#\J	.
=284	=284	=284
2.r	8ccc#'\)	.
.	8r	.
.	4r	.
.	4r	.
*	*clefF4	*clefF4
=285	=285	=285
[2.AA/	2.E\ [2.c#\ (2.e\	.
=286	=286	=286
[2.DD/ 2.AA/_	[2.F#\ 2.c#\_ [2.f#\	.
=287	=287	=287
*	*^	*
2.DD/_ 2.AA/_	4c#/]	2.F#\_ 2.f#\_	.
.	4B/	.	.
.	4c#/	.	.
=288	=288	=288	=288
2.DD/] 2.AA/]	4e/	2.F#\] 2.f#\]	.
.	4.d/	.	.
.	8c#/	.	.
*	*v	*v	*
=289	=289	=289
2.AAA/ [2.AA/	2.E\ [2.c#\ 2.e\	.
=290	=290	=290
[2.DD/ 2.AA/_	2.F#\ 2.c#\_ [2.f#\	.
=291	=291	=291
*	*^	*
2.DD/_ 2.FF#/ 2.AA/]	4c#/]	[2.F#\ 2.f#\_	.
.	4B/	.	.
.	4c#/	.	.
=292	=292	=292	=292
2.DD/_ [2.AA/	4e/	2.F#\] 2.f#\]	.
.	4.d/	.	.
.	8c#/	.	.
*	*v	*v	*
=293	=293	=293
!!c#q/	.
*^	*	*
2.F#/	2.DD\] 2.AA\]	4a\	.
.	.	4f#\	.
.	.	4d\	.
=294	=294	=294	=294
*	*	*^	*
2.E/	[2.EE\	2.c#/	[2.G#\ [2.e\	.
=295	=295	=295	=295	=295
2D/	2EE\]	2.e/]	2G#\] 2B\	.
4C#/	[4AA\	.	4A\	.
=296	=296	=296	=296	=296
&([2.E/&)	2.AA\_	[2.c#/	2.c#\)	.
=297	=297	=297	=297	=297
2.E/]	2.AA\]	2.c#/]	2.c#\	.
*v	*v	*	*	*
*	*v	*v	*
=298	=298	=298
2.r	2.r	.
*	*clefG2	*clefG2
=299	=299	=299
2.r	([2.cc#\	pp
=300	=300	=300
2.r	2.cc#\_	.
=301	=301	=301
2.r	8cc#\L]	.
.	8dd#\	.
.	8ff#\	.
.	8ee\	.
.	8cc#\	.
.	8a\J)	.
=302	=302	=302
!!(g#q/LL	.
!!g#q/JJ	.
4r	(2.gg#\)	.
4r	.	.
*clefG2	*	*
4B/ 4d/ 4e#/	.	.
=303	=303	=303
!!ff#q/LL	.
!!gg#q/JJ	.
&(4A/&) 4c#/ 4f#/	4.ff#\	.
4r	.	.
.	8een\	.
4c#/ 4en/ 4a/	4ff#\	.
=304	=304	=304
2B#/ 2d#/ 2g#/	4.gg#\	.
.	8aa\	.
4Bn/ 4dn/ 4e#/	4gg#\	.
=305	=305	=305
!!ff#q/LL	.
!!gg#q/JJ	.
4A/ 4c#/ 4f#/	4.ff#\	.
4r	.	.
.	8een\	.
4c#/ 4en/ 4a/	4ff#\	.
=306	=306	=306
4G#/ 4d#/ 4b#/	[2.gg#\)	.
4r	.	.
4r	.	.
*clefF4	*	*
=307	=307	=307
4GG#'/	4gg#\_	pp
4r	(8gg#\L]	.
.	8g#\	.
4r	8gg#\	.
.	8dd\J	.
=308	=308	=308
2.r	8gg#\L	.
.	8dd#\	.
.	8ddd#\	.
.	8gg#\	.
.	8ddd#\	.
.	8gg#\J	.
=309	=309	=309
2.r	8ggg#\)	.
.	8r	.
.	(4gg#/	.
.	4ff#/	.
=310	=310	=310
*^	*^	*
4r	2.C#\	[2.ee/	4r	.
4e/	.	.	8f##\L	.
.	.	.	8g#\J	.
[4G#/	.	.	12b\L	.
.	.	.	12a\	.
.	.	.	12g#\J	.
*v	*v	*	*	*
=311	=311	=311	=311
4G#/]	4ee/]	&([2.g#^\&)	.
4B#/	4ee/	.	.
[4G#/	4dd#/	.	.
=312	=312	=312	=312
*^	*	*	*
4G#/]	2.E\	4cc#/)	4g#\]	.
4c#/	.	4r	(8f##\L	.
.	.	.	8g#\J	.
[4G#/	.	4r	12bn\L	.
.	.	.	12a\	.
.	.	.	12g#\J	.
=313	=313	=313	=313	=313
4G#/]	2.BB#\	4r	[2.g#^\)	.
4d#/	.	(4gg#/	.	.
[4G#/	.	4ff#/	.	.
=314	=314	=314	=314	=314
4G#/]	2.C#\	[2.ee/	4g#\]	.
4e/	.	.	8f##\L	.
.	.	.	8g#\J	.
[4G#/	.	.	12bn\L	.
.	.	.	12a\	.
.	.	.	12g#\J	.
=315	=315	=315	=315	=315
4G#/]	2.D#\ 2.F#\	4ee/]	&(2.g#^\&)	.
4B#/	.	4ee/	.	.
[4G#/	.	4dd#/	.	.
*	*	*v	*v	*
=316	=316	=316	=316
4G#/]	2.E\	4cc#\)	.
4c#/	.	(8b#\L	.
.	.	8cc#\J	.
4G#/	.	12ee\L	.
.	.	12ddn\	.
.	.	12cc#\J	.
=317	=317	=317	=317
*	*	*^	*
4Bn/	2.E#\	4r	2.cc#^\)	.
4g#/	.	(4ccc#/	.	.
[4c#/	.	4bbn/	.	.
=318	=318	=318	=318	=318
4c#/]	2.F#\ 2.A\	[2.aa/	4cc#\	.
4f#/	.	.	8b#\L	.
.	.	.	8cc#\J	.
[4c#/	.	.	12ee\L	.
.	.	.	12dd\	.
.	.	.	12cc#\J	.
=319	=319	=319	=319	=319
4c#/]	2.G#\ 2.Bn\	4aa/]	&([2.cc#^\&)	.
4e#/	.	4aa/	.	.
[4c#/	.	4gg#/	.	.
=320	=320	=320	=320	=320
4c#/]	2.A\	4ff#/)	4cc#\]	.
4f#/	.	4r	(8b#\L	.
.	.	.	8cc#\J	.
[4c#/	.	4r	12ee\L	.
.	.	.	12dd\	.
.	.	.	12cc#\J	.
=321	=321	=321	=321	=321
4c#/]	2.E#\	4r	[2.cc#^\)	.
4g#/	.	(4ccc#/	.	.
[4c#/	.	4bbn/	.	.
=322	=322	=322	=322	=322
4c#/]	2.F#\ 2.A\	[2.aa/	4cc#\]	.
4a/	.	.	8b#\L	.
.	.	.	8cc#\J	.
[4c#/	.	.	12ee\L	.
.	.	.	12dd\	.
.	.	.	12cc#\J	.
=323	=323	=323	=323	=323
4c#/]	2.G#\ 2.Bn\	4aa/]	&([2.cc#^\&)	.
4e#/	.	4aa/	.	.
[4c#/	.	4gg#/	.	.
=324	=324	=324	=324	=324
4c#/]	2.A\	[2.ff#/	4cc#\]	.
4f#/	.	.	8b#\L	.
.	.	.	8cc#\J	.
4c#/	.	.	12ee\L	.
.	.	.	12dd\	.
.	.	.	12cc#\J	.
*v	*v	*	*	*
=325	=325	=325	=325
4AA'/	4ff#/]	&(2.cc#^\&)	.
4c#\	4gg#/	.	.
&(4F#\&)	4aa/	.	.
=326	=326	=326	=326
*^	*	*	*
4GG#'\	2.D#/	4gg#/)	4r	.
4B#\	.	4r	(8f##\L	.
.	.	.	8g#\J	.
4G#\	.	4r	12bn\L	.
.	.	.	12a\	.
.	.	.	12g#\J	.
=327	=327	=327	=327	=327
4E\	2.E/	4r	[2.g#^\)	.
4c#\	.	(4ff#/	.	.
4G#\	.	4ee/	.	.
=328	=328	=328	=328	=328
2.F#/	4GG#\	[2.dd#/	4g#\]	.
.	4B#\	.	8f##\L	.
.	.	.	8g#\J	.
.	[4G#\	.	12bn\L	.
.	.	.	12a\	.
.	.	.	12g#\J	.
=329	=329	=329	=329	=329
4G#\]	2.E/	4dd#/]	&([2.g#^\&)	.
4c#\	.	4dd#/	.	.
4G#\	.	4cc#/	.	.
=330	=330	=330	=330	=330
4GG#\	2.D#/	4b#/)	4g#\]	.
4B#\	.	4r	(8f##\L	.
.	.	.	8g#\J	.
[4G#\	.	4r	12bn\L	.
.	.	.	12a\	.
.	.	.	12g#\J	.
=331	=331	=331	=331	=331
4G#\]	2.E/	4r	2.g#^\)	.
4c#\	.	(4ff#/	.	.
4G#\	.	4ee/	.	.
=332	=332	=332	=332	=332
4r	[2.BB\	4dd#/)	4a\	.
4r	.	4r	(8a#\L	.
.	.	.	8b\J	.
[4An/	.	4r	12dd#\L	.
.	.	.	12cc#\	.
.	.	.	12b\J	.
*v	*v	*	*	*
=333	=333	=333	=333
2.BB^\] 2.F#^\ 2.A^\] 2.d#^\	4r	2.b^\)	.
.	(4ee/	.	.
.	4ff#/)	.	.
*	*v	*v	*
=334	=334	=334
*^	*	*
4r	(2.E\	8g#\L	.
.	.	8b\	.
4B/ 4e/	.	8ee\	.
.	.	8gg#\	.
4G#/	.	8ff#\	.
.	.	8ee\J	.
=335	=335	=335	=335
4r	2.D#\	8gg#\L	.
.	.	8bb\	.
4B/ 4e/	.	8eee\	.
.	.	8ggg#\	.
4G#/	.	8fff#\	.
.	.	8eee\J	.
*v	*v	*	*
=336	=336	=336
4C#'/)	8bb\L	.
.	8gg#\	.
4B\ 4e\	8ff#\	.
.	8ee\	.
4G#\	8b\	.
.	8g#\J	.
=337	=337	=337
(2.BB/	8f#/L	.
.	8e/	.
.	8B/	.
.	8g#/	.
.	8f#/	.
.	8e/J	.
=338	=338	=338
4AA'/)	8c#/L	.
.	8e/	.
4c#\ (4e\	8f#/	.
.	8a/	.
4F#\)	8cc#/	.
.	8ee/J	.
=339	=339	=339
4FF#'/	8ff#\L	.
.	8aa\	.
4c#\ (4e\	8ccc#\	.
.	8eee\	.
4F#\)	8fff#\	.
.	8aaa\J	.
=340	=340	=340
4BB'/	(8ggg#\L	.
.	8fff#\	.
*^	*	*
[2B/ [2d#/	4r	8ddd#\	.
.	.	8aa\	.
.	4F#\	8gg#\	.
.	.	8ff#\J	.
=341	=341	=341	=341
2.B/] 2.d#/]	4G#\	8dd#\L	.
.	.	8b\	.
.	4F#\	8dd#\	.
.	.	8cc#\	.
.	&(4G#\&)	8b\	.
.	.	8a\J)	.
=342	=342	=342	=342
4r	2.E\	(8g#\L	.
.	.	8b\	.
4B/ 4e/	.	8ee\	.
.	.	8gg#\	.
4G#/	.	8ff#\	.
.	.	8ee\J	.
=343	=343	=343	=343
4r	2.D#\	8gg#\L	.
.	.	8bb\	.
4B/ 4e/	.	8eee\	.
.	.	8ggg#\	.
4G#/	.	8fff#\	.
.	.	8eee\J	.
*v	*v	*	*
=344	=344	=344
&(4C#'/&)	8bb\L	.
.	8gg#\	.
4B\ 4e\	8ff#\	.
.	8ee\	.
4G#\	8b\	.
.	8g#\J	.
=345	=345	=345
(2.BB/	8f#/L	.
.	8e/	.
.	8B/	.
.	8g#/	.
.	8f#/	.
.	8e/J)	.
=346	=346	=346
4AA'/)	8c#/L	.
.	8e/	.
4c#\ (4e\	8f#/	.
.	8a/	.
4F#\	8cc#/	.
.	8ee/J	.
=347	=347	=347
4FF#'/)	8ff#\L	.
.	8aa\	.
4c#\ (4e\	8ccc#\	.
.	8eee\	.
4F#\	8fff#\	.
.	8aaa\J	.
=348	=348	=348
4BB'/)	8ggg#\L	.
.	8fff#\	.
*^	*	*
[2B/ [2d#/	4r	8ddd#\	.
.	.	8aa\	.
.	(4F#\	8gg#\	.
.	.	8ff#\J	.
=349	=349	=349	=349
2.B/] 2.d#/]	4G#\	8dd#\L	.
.	.	8b\	.
.	4F#\	8dd#\	.
.	.	8cc#\	.
.	4G#\	8b\	.
.	.	8a\J	.
=350	=350	=350	=350
4r	2.E\)	8g#\L	.
.	.	8b\	.
4B/ 4e/	.	8ee\	.
.	.	8gg#\	.
4G#/	.	8ff#\	.
.	.	8ee\J	.
*v	*v	*	*
=351	=351	=351
4BB'/	8gg#\L	.
.	8bb\	.
4B\ 4e\	8eee\	.
.	8ggg#\	.
4G#\	8fff#\	.
.	8eee\J	.
=352	=352	=352
4AA\ (4A\	8cccn\L	.
.	8aa\	.
2Cn\ 2cn\)	8ff#\	.
.	8ee\	.
.	8ccn\	.
.	8a\J	.
=353	=353	=353
2.r	8f#/L	.
.	8e/	.
.	8cn/	.
.	8A/	.
.	8F#/	.
.	8E/J	.
=354	=354	=354
*^	*	*
4r	(2.EE\	8G#/L	.
.	.	8B/	.
4E/	.	8e/	.
.	.	8g#/	.
&(4BB/&)	.	8f#/	.
.	.	8e/J	.
*v	*v	*	*
=355	=355	=355
4BBB/)	8g#\L	.
.	8b\	.
(4E\	8ee\	.
.	8gg#\	.
4BB/)	8ff#\	.
.	8ee\J	.
=356	=356	=356
(4AAA/ 4AA/	8ccn/L	.
.	8a/	.
2CCn/) 2Cn/	8f#/	.
.	8e/	.
.	8cn/	.
.	8A/J	.
*	*clefF4	*clefF4
=357	=357	=357
2.r	8F#/L	.
.	8E/	.
.	8Cn/	.
.	8AA/	.
.	8FF#/	.
.	8EE/J	.
=358	=358	=358
4EEE'/	4r	.
4r	8BB\L	ff
.	8E\	.
4r	8A\	.
.	8G#\J	.
*	*clefG2	*clefG2
=359	=359	=359
2.r	8B/L	.
.	8e/	.
.	8a/	.
.	8g#/	.
.	8b/	.
.	8ee/J	.
=360	=360	=360
4E\ 4B\ 4g#\	8aa\L	.
.	8gg#\	.
4r	8bb\	.
.	8eee\	.
4r	8aaa\	.
.	8ggg#\J	.
=361	=361	=361
2.r	8eee\L	.
.	8bb\	.
.	8aa\	.
.	8gg#\	.
.	8ee\	.
.	8b\J	.
=362	=362	=362
2.r	8a/L	.
.	8g#/	.
.	8e/	.
.	8B/	.
.	8A/	.
.	8G#/J	.
*	*clefF4	*clefF4
=363	=363	=363
2.r	8E/L	.
.	8BB/	.
.	8AA/	.
.	8GG#/	.
.	8EE/	.
.	8BBB/J	.
=364	=364	=364
2.EEE/	2.r	.
=365	=365	=365
2.r	2.r	.
=366	=366	=366
2.AAA/ [2.AA/	2.E\ [2.c#\ 2.e\	f
=367	=367	=367
[2.DD/ 2.AA/_	[2.F#\ 2.c#\_ [2.f#\	.
=368	=368	=368
*	*^	*
2.DD/_ 2.AA/_	4c#/]	2.F#\_ 2.f#\_	.
.	4B/	.	.
.	4c#/	.	.
=369	=369	=369	=369
2.DD/] 2.AA/]	4e/	2.F#\] 2.f#\]	.
.	4.d/	.	.
.	8c#/	.	.
*	*v	*v	*
=370	=370	=370
2.AAA/ [2.AA/	2.E\ [2.c#\ 2.e\	.
=371	=371	=371
[2.DD/ 2.AA/_	[2.F#\ 2.c#\_ [2.f#\	.
=372	=372	=372
*	*^	*
2.DD/_ 2.AA/_	4c#/]	2.F#\_ 2.f#\_	.
.	4B/	.	.
.	4c#/	.	.
=373	=373	=373	=373
2.DD/_ 2.AA/_	4e/	2.F#\] 2.f#\]	.
.	4.d/	.	.
.	8c#/	.	.
*	*v	*v	*
=374	=374	=374
!!(c#q/	.
*	*^	*
2.DD/] 2.AA/] 2.F#/	4a/	2c#\)	.
.	2f#/	.	.
.	.	4d\	.
=375	=375	=375	=375
*^	*	*	*
(2.E/	[2.EE\	2.c#/	[2.G#\ [2.e\	.
=376	=376	=376	=376	=376
2D/	2EE\]	2.e/]	2G#\] 2B\	.
4C#/	[4AA\	.	4A\	.
=377	=377	=377	=377	=377
[2.E/)	2.AA\]	[2.c#/	2.c#\	.
=378	=378	=378	=378	=378
2.E/]	&(2.AA\&)	2.c#/]	2.c#\	.
*v	*v	*	*	*
*	*v	*v	*
*	*clefG2	*clefG2
=379	=379	=379
4r	(2.cc#\	p
4r	.	.
4En\ 4Gn\ 4A#\	.	.
=380	=380	=380
!!bq/LL	.
!!cc#q/JJ	.
4D\ 4F#\ &(4B\&)	4.b\	.
4r	.	.
.	8an/	.
4F#\ 4An\ 4d\	4b\	.
=381	=381	=381
2E#\ 2G#\ 2c#\	4.cc#\	.
.	8dd\	.
4En\ 4Gn\ 4A#\	4cc#\	.
=382	=382	=382
!!bq/LL	.
!!cc#q/JJ	.
4D\ 4F#\ &(4B\&)	4.b\	.
4r	.	.
.	8an/	.
4F#\ 4An\ 4d\	4b\	.
=383	=383	=383
&(4C#\&) 4G#\ 4e#\	8cc#/L)	.
.	(8c#/	.
4r	8cc#/	.
.	8g#/	.
4r	8cc#/	.
.	8g#/J	.
=384	=384	=384
4CC#'/	8gg#\L	.
.	8cc#\	.
4r	8gg#\	.
.	8cc#\	.
4r	8ccc#\	.
.	8gg#\J	.
=385	=385	=385
2.r	8cc#\L	.
.	8g#\	.
.	8gg#\	.
.	8cc#\	.
.	8gg#\	.
.	8cc#\J	.
=386	=386	=386
2.r	8ccc#'\)	.
.	8r	.
.	4r	.
.	4r	.
*	*clefF4	*clefF4
=387	=387	=387
2.AAA/ [2.AA/	2.E\ [2.c#\ (2.e\	p
=388	=388	=388
[2.DD/ 2.AA/_	[2.F#\ 2.c#\_ [2.f#\	.
=389	=389	=389
*	*^	*
2.DD/_ 2.AA/_	4c#/]	2.F#\_ 2.f#\_	.
.	4B/	.	.
.	4c#/	.	.
=390	=390	=390	=390
2.DD/] 2.AA/]	4e/	2.F#\] 2.f#\]	.
.	4.d/	.	.
.	8c#/	.	.
*	*v	*v	*
=391	=391	=391
2.AAA/ [2.AA/	2.E^\ [2.c#^\ 2.e^\	.
=392	=392	=392
[2.DD/ 2.AA/_	[2.F#\ 2.c#\_ [2.f#\	.
=393	=393	=393
*	*^	*
2.DD/_ 2.AA/_	4c#/]	2.F#\_ 2.f#\_	.
.	4B/	.	.
.	4c#/	.	.
=394	=394	=394	=394
2.DD/_ 2.AA/_	4e/	2.F#\] 2.f#\]	.
.	4.d/	.	.
.	8c#/	.	.
*	*v	*v	*
*	*clefG2	*clefG2
=395	=395	=395
!!c#q/	.
*	*^	*
2.DD/] 2.AA/] 2.F#/	8a/L	&([2c#\&)	.
.	8g#/	.	.
.	8b/	.	.
.	8a/	.	.
.	8f#/	8c#\L]	.
.	8d/J	8d\J	.
=396	=396	=396	=396
*^	*	*	*
2.E/	[2.EE\	2.c#\	[2.G#/ [2.e/	.
=397	=397	=397	=397	=397
2D/	2EE\]	2.e/]	2G#\] 2B\	.
4C#/	[4AA\	.	4A\	.
=398	=398	=398	=398	=398
&([2.E/&)	2.AA\_	[2.c#/	2.c#\)	.
=399	=399	=399	=399	=399
2.E/]	2.AA\]	2.c#/	2.c#\]	.
*v	*v	*	*	*
*	*v	*v	*
=400	=400	=400
2.r	2.r	.
=401	=401	=401
2.r	([2.cc#\	pp
=402	=402	=402
2.r	2.cc#\_	.
=403	=403	=403
2.r	8cc#\L]	.
.	8dd#\	.
.	8ff#\	.
.	8ee\	.
.	8cc#\	.
.	8a\J	.
=404	=404	=404
!!g#q/LL)	.
!!(g#q/JJ	.
4r	(2.gg#\)	.
4r	.	.
*clefG2	*	*
4B/ 4d/ 4e#/	.	.
=405	=405	=405
!!ff#q/LL	.
!!gg#q/JJ	.
&(4A/&) 4c#/ 4f#/	4.ff#\	.
4r	.	.
.	8een\	.
4c#/ 4en/ 4a/	4ff#\	.
=406	=406	=406
2B#/ 2d#/ 2g#/	4.gg#\	.
.	8aa\	.
4Bn/ 4dn/ 4e#/	4gg#\	.
=407	=407	=407
!!ff#q/LL	.
!!gg#q/JJ	.
&(4A/&) 4c#/ 4f#/	4.ff#\	.
4r	.	.
.	8een\	.
4c#/ 4en/ 4a/	4ff#\	.
=408	=408	=408
&(4G#/&) 4d#/ 4b#/	[2.gg#\)	.
4r	.	.
4r	.	.
=409	=409	=409
*clefF4	*	*
4GG#'/	4gg#\_	.
4r	8gg#\L]	.
.	8g#\	.
4r	(8gg#\	.
.	8dd#\J	.
=410	=410	=410
2.r	8gg#\L	.
.	8dd\	.
.	8ddd\	.
.	8gg#\	.
.	8ddd\	.
.	8gg#\J	.
=411	=411	=411
2.r	8ggg#'\)	.
.	8r	.
.	(4gg#/	.
.	4ff#/	.
=412	=412	=412
*^	*^	*
4r	2.C#\	[2.ee/	4r	.
4e/	.	.	8f##\L	.
.	.	.	8g#\J	.
[4G#/	.	.	12b\L	.
.	.	.	12a\	.
.	.	.	12g#\J	.
=413	=413	=413	=413	=413
4G#/]	2.D#\ 2.F#\	4ee/]	&([2.g#^\&)	.
4B#/	.	4ee/	.	.
[4G#/	.	4dd#/	.	.
=414	=414	=414	=414	=414
4G#/]	2.E\	4cc#/)	4g#\]	.
4c#/	.	4r	(8f##\L	.
.	.	.	8g#\J	.
[4G#/	.	4r	12bn\L	.
.	.	.	12a\	.
.	.	.	12g#\J	.
=415	=415	=415	=415	=415
4G#/]	2.BB#\	4r	[2.g#^\)	.
4d#/	.	(4gg#/	.	.
[4G#/	.	4ff#/	.	.
=416	=416	=416	=416	=416
4G#/]	2.C#\	[2.ee/	4g#\]	.
4e/	.	.	8f##\L	.
.	.	.	8g#\J	.
[4G#/	.	.	12bn\L	.
.	.	.	12a\	.
.	.	.	12g#\J	.
=417	=417	=417	=417	=417
4G#/]	2.D#\ 2.F#\	4ee/]	&(2.g#^\&)	.
4B#/	.	4ee/	.	.
[4G#/	.	4dd#/	.	.
*	*	*v	*v	*
=418	=418	=418	=418
4G#/]	2.E\	4cc#\)	.
4c#/	.	(8b#\L	.
.	.	8cc#\J	.
4G#/	.	12ee\L	.
.	.	12ddn\	.
.	.	12cc#\J	.
=419	=419	=419	=419
*	*	*^	*
4Bn/	2.E#\	4r	[2.cc#^\)	.
4g#/	.	(4ccc#/	.	.
[4c#/	.	4bbn/	.	.
=420	=420	=420	=420	=420
4c#/]	2.F#\ 2.A\	[2.aa/	4cc#\]	.
4f#/	.	.	8b#\L	.
.	.	.	8cc#\J	.
[4c#/	.	.	12ee\L	.
.	.	.	12dd\	.
.	.	.	12cc#\J	.
=421	=421	=421	=421	=421
4c#/]	2.G#\ 2.Bn\	4aa/]	&([2.cc#^\&)	.
4e#/	.	4aa/	.	.
[4c#/	.	4gg#/	.	.
=422	=422	=422	=422	=422
4c#/]	2.A\	4ff#/)	4cc#\]	.
4f#/	.	4r	(8b#\L	.
.	.	.	8cc#\J	.
[4c#/	.	4r	12ee\L	.
.	.	.	12dd\	.
.	.	.	12cc#\J	.
=423	=423	=423	=423	=423
4c#/]	2.E#\	4r	[2.cc#^\)	.
4g#/	.	(4ccc#/	.	.
[4c#/	.	4bbn/	.	.
=424	=424	=424	=424	=424
4c#/]	2.F#\ 2.A\	[2.aa/	4cc#\]	.
4a/	.	.	8b#\L	.
.	.	.	8cc#\J	.
4c#/	.	.	12ee\L	.
.	.	.	12dd\	.
.	.	.	12cc#\J	.
=425	=425	=425	=425	=425
4c#/	2.G#\ 2.Bn\	4aa/]	&([2.cc#\&)	.
4e#/	.	4aa/	.	.
[4c#/	.	4gg#/	.	.
=426	=426	=426	=426	=426
4c#/]	2.A\	2.ff#/	4cc#\]	.
4f#/	.	.	8b#\L	.
.	.	.	8cc#\J	.
4c#/	.	.	12ee\L	.
.	.	.	12dd\	.
.	.	.	12cc#\J	.
*v	*v	*	*	*
=427	=427	=427	=427
4AA'/	4ff#^/)	&(2.cc#\&)	.
(4c#\	4gg#/	.	.
4F#\)	4aa/	.	.
=428	=428	=428	=428
*^	*	*	*
4GG#\	2.D#/	4gg#/	4r	.
4B#\	.	4r	(8f##\L	.
.	.	.	8g#\J	.
4F#\	.	4r	12bn\L	.
.	.	.	12a\	.
.	.	.	12g#\J	.
=429	=429	=429	=429	=429
4E\	2.E/	4r	[2.g#^\)	.
4c#\	.	(4ff#/	.	.
4G#\	.	4ee/	.	.
=430	=430	=430	=430	=430
2.F#/	4GG#\	[2.dd#/	4g#\]	.
.	4B#\	.	8f##\L	.
.	.	.	8g#\J	.
.	[4G#\	.	12bn\L	.
.	.	.	12a\	.
.	.	.	12g#\J	.
=431	=431	=431	=431	=431
4G#/]	2.E\	4dd#/]	&([2.g#\&)	.
4c#/	.	4dd#/	.	.
4G#/	.	4cc#/	.	.
=432	=432	=432	=432	=432
4GG#'\	2.D#/	4b#/)	4g#\]	.
4B#\	.	4r	(8f##\L	.
.	.	.	8g#\J	.
[4G#\	.	4r	12bn\L	.
.	.	.	12a\	.
.	.	.	12g#\J	.
=433	=433	=433	=433	=433
4G#\]	2.E/	4r	2.g#\)	.
4c#\	.	(4ff#/	.	.
4G#\	.	4ee/	.	.
=434	=434	=434	=434	=434
4r	&([2.BB\&)	4dd#/)	4a\	.
4r	.	4r	(8a#\L	.
.	.	.	8b\J	.
[4An/	.	4r	12dd#\L	.
.	.	.	12cc#\	.
.	.	.	12b\J	.
*v	*v	*	*	*
=435	=435	=435	=435
2.BB\] 2.F#\ 2.A\] &(2.d#\&)	4r	2.b\)	.
.	(4ee/	.	.
.	4ff#/)	.	.
*	*v	*v	*
=436	=436	=436
*^	*	*
4r	2.E\	(8g#\L	.
.	.	8b\	.
4B/ 4e/	.	8ee\	.
.	.	8gg#\	.
4G#/	.	8ff#\	.
.	.	8ee\J	.
=437	=437	=437	=437
4r	2.D#\	8gg#\L	.
.	.	8bb\	.
4B/ 4e/	.	8eee\	.
.	.	8ggg#\	.
4G#/	.	8fff#\	.
.	.	8eee\J	.
*v	*v	*	*
=438	=438	=438
&(4C#'/&)	8bb\L	.
.	8gg#\	.
4B\ 4e\	8ff#\	.
.	8ee\	.
&(4G#\&)	8b\	.
.	8g#\J	.
=439	=439	=439
(2.BB/	8f#/L	.
.	8e/	.
.	8B/	.
.	8g#/	.
.	8f#/	.
.	8e/J)	.
=440	=440	=440
4AA'/)	8c#/L	.
.	8e/	.
4c#\ (4e\	8f#/	.
.	8a/	.
4F#\)	8cc#/	.
.	8ee/J	.
=441	=441	=441
4FF#'/	8ff#\L	.
.	8aa\	.
4c#\ (4e\	8ccc#\	.
.	8eee\	.
4F#\)	8fff#\	.
.	8aaa\J	.
=442	=442	=442
4BB'/	8ggg#\L	.
.	8fff#\	.
*^	*	*
[2B/ [2d#/	4r	8ddd#\	.
.	.	8aa\	.
.	(4F#\	8gg#\	.
.	.	8ff#\J	.
=443	=443	=443	=443
2.B/] 2.d#/]	4G#\	8dd#\L	.
.	.	8b\	.
.	4F#\	8dd#\	.
.	.	8cc#\	.
.	4G#\	8b\	.
.	.	&(8a\J&)	.
=444	=444	=444	=444
4r	(2.E\)	8g#\L	.
.	.	8b\	.
4B/ 4e/	.	8ee\	.
.	.	8gg#\	.
4G#/	.	8ff#\	.
.	.	8ee\J	.
=445	=445	=445	=445
4r	2.D#\	8gg#\L	.
.	.	8bb\	.
4B/ 4e/	.	8eee\	.
.	.	8ggg#\	.
4G#/	.	8fff#\	.
.	.	8eee\J	.
*v	*v	*	*
=446	=446	=446
4C#'/)	8bb\L	.
.	8gg#\	.
4B\ 4e\	8ff#\	.
.	8ee\	.
4G#\	8b\	.
.	8g#\J	.
=447	=447	=447
(2.BB/	8f#/L	.
.	8e/	.
.	8B/	.
.	8g#/	.
.	&(8f#/&)	.
.	8e/J	.
=448	=448	=448
4AA'/)	8c#/L	.
.	8e/	.
(4e\	8f#/	.
.	8a/	.
4F#\)	8cc#/	.
.	8ee/J	.
=449	=449	=449
4FF#'/	8ff#\L	.
.	8aa\	.
4c#\ (4e\	8ccc#\	.
.	8eee\	.
4F#\)	8fff#\	.
.	8aaa\J	.
=450	=450	=450
4BB'/	8ggg#\L	.
.	8fff#\	.
*^	*	*
[2B/ [2d#/	4r	8ddd#\	.
.	.	8aa\	.
.	(4F#\	8gg#\	.
.	.	8ff#\J	.
=451	=451	=451	=451
2.B/] 2.d#/]	4G#\	8dd#\L	.
.	.	8b\	.
.	4F#\	8dd#\	.
.	.	8cc#\	.
.	4G#\	8b\	.
.	.	&(8a\J&)	.
=452	=452	=452	=452
4r	2.E\)	8g#\L	.
.	.	8b\	.
4B/ (4e/	.	8ee\	.
.	.	8gg#\	.
4G#/)	.	8ff#\	.
.	.	8ee\J	.
*v	*v	*	*
=453	=453	=453
4BB'/	8gg#\L	.
.	8bb\	.
4B\ (4e\	8eee\	.
.	8ggg#\	.
4G#\)	8fff#\	.
.	&(8eee\J&)	.
=454	=454	=454
4AA\ 4A\	(8cccn\L	.
.	8aa\	.
2Cn\ &(2cn\&)	8ff#\	.
.	8ee\	.
.	8ccn\	.
.	8a\J	.
=455	=455	=455
2.r	8f#/L	.
.	8e/	.
.	8cn/	.
.	8A/	.
.	8F#/	.
.	8E/J)	.
=456	=456	=456
*^	*	*
4r	2.EE\	(8G#/L	.
.	.	8B/	.
4E/	.	8e/	.
.	.	8g#/	.
4BB/	.	8f#/	.
.	.	8e/J	.
*v	*v	*	*
=457	=457	=457
&(4BBB'/&)	8g#\L	.
.	8b\	.
(4E\	8ee\	.
.	8gg#\	.
4BB/)	8ff#\	.
.	8ee\J)	.
=458	=458	=458
(4AAA/ 4AA/	8ccn/L	.
.	8a/	.
2CCn/) 2Cn/	8f#/	.
.	8e/	.
.	8cn/	.
.	8A/J	.
*	*clefF4	*clefF4
=459	=459	=459
2.r	8F#/L	.
.	8E/	.
.	8Cn/	.
.	8AA/	.
.	8FF#/	.
.	8EE/J	.
=460	=460	=460
4EEE'/	8BB\L	ff
.	8E\	.
4r	8A\	.
.	8G#\J	.
4r	4r	.
*	*clefG2	*clefG2
=461	=461	=461
2.r	8B/L	.
.	8e/	.
.	8a/	.
.	8g#/	.
.	8b/	.
.	8ee/J	.
=462	=462	=462
4E'\ 4B'\ 4g#'\	8aa\L	.
.	8gg#\	.
4r	8bb\	.
.	8eee\	.
4r	8aaa\	.
.	8ggg#\J	.
=463	=463	=463
2.r	8eee\L	.
.	8bb\	.
.	8aa\	.
.	8gg#\	.
.	8ee\	.
.	8b\J	.
=464	=464	=464
2.r	8a/L	.
.	8g#/	.
.	8e/	.
.	8B/	.
.	8A/	.
.	8G#/J	.
*	*clefF4	*clefF4
=465	=465	=465
2.r	8E/L	.
.	8BB/	.
.	8AA/	.
.	8GG#/	.
.	8EE/	.
.	8BBB/J	.
=466	=466	=466
2.EEE/	2.r	.
=467	=467	=467
2.r	2.r	.
=468	=468	=468
4DDDn'/ 4DDn'/	4r	.
4r	8BB\L	f
.	8Fn\	.
4r	8A\	.
.	8G#\J	.
*	*clefG2	*clefG2
=469	=469	=469
2.r	8B/L	.
.	8fn/	.
.	8a/	.
.	8g#/	.
.	8b/	.
.	8ffn/J	.
=470	=470	=470
4Dn'^\ 4G#'^\ 4B'^\ 4fn'^\	8aa\L	.
.	8gg#\	.
4r	8bb\	.
.	8fffn\	.
4r	8aaa\	.
.	8ggg#\J	.
=471	=471	=471
2.r	8fffn\L	.
.	8bb\	.
.	8aa\	.
.	8gg#\	.
.	8ffn\	.
.	8b\J	.
=472	=472	=472
2.r	8a/L	.
.	8g#/	.
.	8fn/	.
.	8B/	.
.	8A/	.
.	8G#/J	.
*	*clefF4	*clefF4
=473	=473	=473
2.r	8Fn/L	.
.	8BB/	.
.	8AA/	.
.	8GG#/	.
.	8FFn/	.
.	8BBB/J	.
=474	=474	=474
([2.DDD/	2.r	.
=475	=475	=475
2.DDD/]	2.r	.
*	*clefG2	*clefG2
=476	=476	=476
4CCC#'/) 4CC#'/	4r	.
4r	8a#\L	.
.	8g#\	.
4r	8b\	.
.	8ee#\J	.
=477	=477	=477
4GG#/ (4G#/	8aa#\L	.
.	8gg#\	.
4D#\ 4d#\	8bb\	.
.	8eee#\	.
4C#\ 4c#\	8aaa#\	.
.	8ggg#\J	.
=478	=478	=478
2C#^\ 2c#^\)	8aa#\L	.
.	8eeen\	.
.	8ggg#\	.
.	8fff##\	.
4r	8eee\	.
.	8aa#\J	.
=479	=479	=479
4CC#'/ 4C#'/	8gg#\L	.
.	8ff##\	.
4r	8ee\	.
.	8a#\	.
4r	8g#\	.
.	&(8f##\J&)	.
=480	=480	=480
4CCC#'/ 4CC#'/	(8An/L	.
.	8d#/	.
4r	8g#/	.
.	8f#/	.
4r	8a/	.
.	8dd#/J	.
=481	=481	=481
4FF#/ 4F#/	8gg#\L	.
.	8ff#\	.
4D#\ 4d#\	8aa\	.
.	8ddd#\	.
4C#\ 4c#\	8ggg#\	.
.	8fff#\J	.
=482	=482	=482
4C#'\ &(4c#'\&)	8gg#\L	.
.	8ccc#\	.
4FFF##/ 4FF##/	8fff#\	.
.	8eee#\	.
4GGG#/ 4GG#/	8ccc#\	.
.	8gg#\J	.
=483	=483	=483
4GGG#/ 4GG#/	8ff#\L	.
.	8ee#\	.
4DD#/ 4D#/	8cc#\	.
.	8g#\	.
4CC#/ 4C#/	8f#\	.
.	8e#\J)	.
=484	=484	=484
&(4DDn'/&) 4Dn'/	8cn/L	.
.	8f#/	.
4r	8b/	.
.	8a/	.
4r	8ccn/	.
.	8ff#/J	.
=485	=485	=485
4AA\ (4A\	8bb\L	.
.	8aa\	.
4E\ 4e\	8ccn\	.
.	8ff#\	.
4D\ 4d\	8bb\	.
.	8aa\J	.
=486	=486	=486
2D^\ 2d^\)	8b\L	.
.	8ffn\	.
.	8aa\	.
.	8gg#\	.
4r	8ff\	.
.	8b\J	.
=487	=487	=487
4DD'/ 4D'/	8aa\L	.
.	8gg#\	.
4r	8ffn\	.
.	8b\	.
4r	8a\	.
.	8g#\J	.
=488	=488	=488
4DDD'/ 4DD'/	(8B-/L	.
.	8e/	.
4r	8a/	.
.	8gn/	.
4r	8b-/	.
.	8ee/J	.
=489	=489	=489
4GGn/ 4Gn/	8aa\L	.
.	8ggn\	.
4E\ 4e\	8b-\	.
.	8ee\	.
4D\ 4d\	8aa\	.
.	8gg\J	.
=490	=490	=490
4D'\ &(4d'\&)	8a\L	.
.	8dd\	.
4CC#/ 4C#/	8ggn\	.
.	8ff#\	.
4DD/ 4D/	8dd\	.
.	8a\J	.
=491	=491	=491
&(4DD'/&) 4D'/	8ggn\L	.
.	8ff#\	.
(4BBB/ 4BB/	8dd\	.
.	8a\	.
4CCn/ 4Cn/	8gn\	.
.	8f#\J)	.
=492	=492	=492
4BBB-/) 4BB-/	4d'^/ 4gn'^/ 4dd'^/	.
(4d\	8cc#\L	.
.	8dd\J	.
4D\ 4Gn\)	12ffn\L	.
.	12ee-\	.
.	12dd\J	.
=493	=493	=493
*	*^	*
4AA^/	4r	[2.dd^\	.
4d\	(4ddd/	.	.
4D\ &(4A\&)	4cccn/	.	.
=494	=494	=494	=494
4GGn/	4ggn/ 4bb-/)	4dd\]	.
4d\	2ryy	(8cc#\L	.
.	.	8dd\J	.
4D\ &(4B-\&)	.	12ffn\L	.
.	.	12ee-\	.
.	.	12dd\J	.
=495	=495	=495	=495
*^	*	*	*
4Cn/	2.C\	4r	[2.dd^\)	.
4d/	.	4b-/ (4bb-/	.	.
4F#/ 4A/	.	4a/ 4aa/	.	.
*v	*v	*	*	*
=496	=496	=496	=496
&(4BB-^/&)	4dd\]	4gn/ 4ggn/)	.
*	*v	*v	*
4d\	(8cc#\L	.
.	8dd\J	.
4D\ &(4Gn\&)	12ffn\L	.
.	12ee-\	.
.	12dd\J	.
=497	=497	=497
*	*^	*
4AA^/	4r	[2.dd^\)	.
4d\	(4ddd/	.	.
4D\ &(4A\&)	4cccn/	.	.
=498	=498	=498	=498
4GGn^/	4ggn/ 4bb-/)	4dd\]	.
4d\	2ryy	8f#\L	.
.	.	(8gn\J	.
&(4Gn\&)	.	12b-\L	.
.	.	12a-\	.
.	.	12g\J	.
=499	=499	=499	=499
4BBn^/	4r	[4gn^\)	.
4d\	(4ggn/	2g_ 2dd\	.
&(4Gn\&)	4ffn/	.	.
*	*v	*v	*
=500	=500	=500
4Cn^/	4g\] 4ccn\ 4ee-\)	.
4e-\	(8ff#\L	.
.	8ggn\J	.
&(4Gn\&)	12bb-\L	.
.	12aa-\	.
.	12gg\J	.
=501	=501	=501
*	*^	*
4D^\	4r	[2.ggn^\)	.
4fn\	(4gggn/	.	.
4Gn\ &(4Bn\&)	4fffn/	.	.
=502	=502	=502	=502
4E-^\	4cccn/ 4eee-/)	4gg\]	.
4gn\	2ryy	(8ff#\L	.
.	.	8ggn\J	.
4Gn\ &(4cn\&)	.	12bb-\L	.
.	.	12aa-\	.
.	.	12gg\J	.
=503	=503	=503	=503
*^	*	*	*
4Fn^/	2.F^\	4r	[2.gg#\)	.
4gn/	.	4ee-/ (4eee-/	.	.
4Gn/ &(4Bn/&)	.	4dd/ 4ddd/	.	.
=504	=504	=504	=504	=504
4E-^/	2.E-^\	4ccn/ 4cccn/)	4gg#\]	.
4e-/	.	2ryy	(8f#\L	.
.	.	.	8gn\J	.
4Gn/ &(4cn/&)	.	.	12b-\L	.
.	.	.	12a-\	.
.	.	.	12g\J	.
=505	=505	=505	=505	=505
4D^/	2.D^\	4r	[2.gn\)	.
4d/	.	(4ggn/	.	.
&(4Gn/&)	.	4ffn/	.	.
*	*	*v	*v	*
=506	=506	=506	=506
4Cn^/	2.C^\	4g\] 4ccn\ 4ee-\)	.
4cn/	.	(8d/L	.
.	.	8e-/J	.
4E-/ &(4Gn/&)	.	12gn/L	.
.	.	12fn/	.
.	.	12e-/J	.
=507	=507	=507	=507
*	*	*^	*
4BB-^/	2.BB-^\	4r	[2.e-^\)	.
4d-/	.	(4ee-/	.	.
4E-/ &(4Gn/&)	.	4dd-/	.	.
*v	*v	*	*	*
=508	=508	=508	=508
4AA-^/	4e-\]	4a-/ 4cc-/)	.
*	*v	*v	*
4c-\	(8ddn\L	.
.	8ee-\J	.
4E-\ &(4A-\&)	12gg-\L	.
.	12ff-\	.
.	12ee-\J	.
=509	=509	=509
*	*^	*
4GGn^/	4r	[2.ee-^\)	.
4e-\	(4eee-/	.	.
4E-\ &(4B-\&)	4ddd-/	.	.
=510	=510	=510	=510
4AA-^/	4aa-/ 4ccc-/)	4ee-\]	.
4e-\	2ryy	(8ddn\L	.
.	.	8ee-\J	.
4E-\ 4A-\ &(4c-\&)	.	12gg-\L	.
.	.	12ff-\	.
.	.	12ee-\J	.
=511	=511	=511	=511
4BB-^/	4r	(2.ee-^\)	.
4e-\	4cc-/ 4ccc-/	.	.
4E-\ 4Gn\ 4d-\	4b-/ 4bb-/	.	.
=512	=512	=512	=512
4C-^/	4ee\	4a-/) &(4aa-/&)	.
*	*v	*v	*
(4e-\	8ddn\L	.
.	8ee-\J	.
4E-\ 4A-\ 4c-\)	12gg-\L	.
.	12ff-\	.
.	12ee-\J	.
=513	=513	=513
*	*^	*
4GGn^/	4r	[4ee-^\	.
4e-\	(4eee-/	2ee-_ 2bb-'\	.
4E-\ &(4B-\&)	4ddd-/	.	.
*	*v	*v	*
=514	=514	=514
4AA-^/	4ee-\] 4aa-\ 4ccc-\)	.
4e-\	(8ddn\L	.
.	8ee-\J	.
4E-\ 4A-\ &(4c-\&)	12gg-\L	.
.	12ff-\	.
.	12ee-\J	.
=515	=515	=515
*	*^	*
4BB-^/	4r	2.ee-^\)	.
4e-\	4cc-/ (4ccc-/	.	.
4E-\ 4Gn\ &(4d-\&)	4b-/ 4bb-/	.	.
=516	=516	=516	=516
4CC-'/ 4C-'/	4a-/ 4aa-/)	4ff#\	ff
4r	4ryy	4r	.
4G#\ (4en\	4ryy	4r	.
*	*v	*v	*
=517	=517	=517
!!gg#q/	.
4Bn\ 4bn\)	4ggg#\	.
4r	8fff#\L	.
.	8eeen\	.
4G#\ (4e\	8bbn\	.
.	8gg#\J	.
=518	=518	=518
4B\ 4b\)	8ff#/L	.
.	8ee/	.
4r	8b/	.
.	8g#/	.
4r	8f#/	.
.	8e/J	.
=519	=519	=519
2.r	4B'/	.
.	4r	.
.	4r	.
=520	=520	=520
4BBB'/ 4BB'/	(8dd#\L	.
.	8ee\	.
4r	8ff#\	.
.	8gg#\	.
4r	8aa\	.
.	8bb\J	.
=521	=521	=521
4A\ 4cn\ 4d#\ (4f#\	4cccn'\)	.
4A\ 4c\ 4d#\ 4g#\	4r	.
4A\ 4c\ 4d#\ 4f#\	4r	.
=522	=522	=522
4A\ 4cn\ 4d#\ 4f#\)	8cccn\L	.
.	8bb\	.
4r	8aa\	.
.	8gg#\	.
4r	8ff#\	.
.	8ee\J	.
=523	=523	=523
(4BBB/ 4BB/	&(4dd#'\&)	.
4AAA/ 4AA/	4r	.
4CCn/) 4Cn/	4r	.
=524	=524	=524
!!gg#q/	.
4BBB'/ 4BB'/	[2.ggg#\	ff
4G#\ 4e\	.	.
4G#\ (4e\	.	.
=525	=525	=525
4.B\ 4.b\)	4ggg#\]	.
.	8fff#\L	.
8G#\ 8e\	8eee\	.
4G#\ (4e\	8bb\	.
.	8gg#\J	.
=526	=526	=526
4B\ 4b\)	8ff#\L	.
.	8ee\	.
4r	8b\	.
.	8g#\	.
4r	8f#\	.
.	8e\J	.
=527	=527	=527
2.r	&(4B/&)	.
.	4r	.
.	4r	.
=528	=528	=528
4DDn'/ 4Dn'/	(8ee#\L	.
.	8ff#\	.
4r	8gg#\	.
.	8aa\	.
4r	8bb\	.
.	8ccc#\J	.
*clefG2	*	*
=529	=529	=529
(4B/ 4f#/ 4g#/	4ddd'\)	.
4B/ 4f#/ 4a/	4r	.
4B/ 4f#/ 4g#/	4r	.
=530	=530	=530
4B'/) 4e#'/ 4g#'/	8ddd\L	.
.	8ccc#\	.
4r	8bb\	.
.	8aa\	.
4r	8gg#\	.
.	8ff#\J	.
*clefF4	*	*
=531	=531	=531
(4DD/ 4D/	&(4ee#'\&)	.
4BBB#/ 4BB#/	4r	.
4CC#/ 4C#/	4r	.
=532	=532	=532
4EEn/) 4En/	8ff##\L	.
.	8gg#\	.
4r	8aa#\	.
.	8bb\	.
4r	8ccc#\	.
.	8ddd#\J	.
*clefG2	*	*
=533	=533	=533
(4c#/ 4g#/ 4a#/	&(4eee'\&)	.
4c#/ 4g#/ 4b/	4r	.
4c#/ 4g#/ 4a#/	4r	.
=534	=534	=534
4c#'/) 4f##'/ 4a#'/	8eee\L	.
.	8ddd#\	.
4r	8ccc#\	.
.	8bb\	.
4r	8aa#\	.
.	8gg#\J	.
*clefF4	*	*
=535	=535	=535
*k[b-e-a-d-g-]	*k[b-e-a-d-g-]	*k[b-e-a-d-g-]
(4FF-/ 4F-/	&(4ggn'\&)	.
4DDn/ 4Dn/	4r	.
4EE-/ 4E-/	4r	.
=536	=536	=536
4GG-/) 4G-/	8an\L	.
.	8b-\	.
4r	8cc\	.
.	8dd-\	.
*clefG2	*	*
(4c/ 4an/	8ee-\	.
.	8ff\J	.
=537	=537	=537
4e-/) 4an/ 4ee-/	8gg-\L	.
.	8eee-\	.
4r	8gg-\	.
.	8ff\	.
(4c/ 4a/	8ee-\	.
.	8dd-\J	.
=538	=538	=538
4e-/) 4an/ 4ee-/	8cc\L	.
.	8dd-\	.
4r	8ddn\	.
.	8ee-\	.
4G-^/ 4g-^/	8een\	.
.	8ff\J	.
=539	=539	=539
4G-^/ 4g-^/	8gg-\L	.
.	8eee-\	.
4G-^/ 4g-^/	8gg-\	.
.	8ff\	.
4G-^/ 4g-^/	8ee-\	.
.	8dd-\J	.
=540	=540	=540
4F^/ 4c^/ 4e-^/ 4an^/	&(8cc\&)	.
.	8r	.
4r	8fff\L	.
.	(8eeen\	.
4r	8eee-\	.
.	8ccc\J	.
=541	=541	=541
8fff^\L	4aan\)	.
8eeen\	.	.
8eee-\	4r	.
8ccc\J	.	.
&(4aan\&)	8ff^\L	.
.	(8een\J	.
*clefF4	*	*
=542	=542	=542
4r	8ee-\L	.
.	8cc\J	.
(8f^\L	4an/)	.
8en\	.	.
8e-\	4r	.
8c\J	.	.
*	*clefF4	*clefF4
=543	=543	=543
4An\)	8F^\L	.
.	8En\	.
4r	8E-\	.
.	&(8C\J&)	ff
4FF^/	4r	.
*	*clefG2	*clefG2
=544	=544	=544
4BBB-^/ 4BB-^/	4dd-^\ 4ddd-^\	.
*clefG2	*	*
4B-/ 4b-/	(8een\L	.
.	8ff\J	.
&(4d-/&) 4f/	12aa-\L	.
.	12gg-\	.
.	12ff\J	.
*clefF4	*	*
=545	=545	=545
4AA-^\ 4A-^\	4ff^\)	.
*clefG2	*	*
4A-/ 4a-/	4een\ (4eeen\	.
&(4c/&) 4f/	4ff\ 4fff\	.
*clefF4	*	*
=546	=546	=546
4GG-^/ 4G-^/	4b-'^\ 4bb-'^\)	.
4G-\ 4g-\	(8cc\L	.
.	8dd-\J	.
4B-\ &(4d-\&)	12ff\L	.
.	12ee-\	.
.	12dd-\J	.
=547	=547	=547
4FF^/ 4F^/	4dd-^\)	.
4F\ 4f\	4cc\ (4ccc\	.
4A-\ 4d-\	4dd-\ 4ddd-\	.
=548	=548	=548
4EE-^/ &(4E-^/&)	4g-'\ 4gg-'\)	.
4E-\ 4e-\	(8an\L	.
.	8b-\J	.
4G-\ &(4B-\&)	12dd-\L	.
.	12cc\	.
.	12b-\J	.
=549	=549	=549
4DD-^/ 4D-^/	4b-^\)	.
4D-\ 4d-\	4an\ (4aan\	.
4F\ &(4B-\&)	4b-\ 4bb-\	.
=550	=550	=550
4CC^/ 4C^/	4e-'^/ 4ee-'^/)	.
4C\ 4c\	(8f/L	.
.	8g-/J	.
4E-\ &(4G-\&)	12b-/L	.
.	12a-/	.
.	12g-/J	.
=551	=551	=551
*	*^	*
4BBB-/ 4BB-/	4r	2.g-^\)	.
*^	*	*	*
2BB-\ 2B-\	4r	4ddn/ (4ff/	.	.
.	4E-/ 4G-/	4ee-/ 4gg-/	.	.
*v	*v	*	*	*
*	*v	*v	*
=552	=552	=552
4AA-'^\ 4C'^\ 4F'^\ &(4An'^\&)	4f'\ 4cc'\ 4ee-'\ 4ff'\)	.
8En\L	(8en/L	.
8F\J	8f/J	.
12A-\L	12a-/L	.
12G-\	12g-/	.
&(12F\J&)	12f/J	.
=553	=553	=553
4BBB-^/ 4BB-^/	4F^/) 4B-^/ 4d-^/ 4f^/	.
4E-\ 4e-\	4ee-\ (4eee-\	.
4D-\ 4d-\	4dd-\ 4ddd-\	.
=554	=554	=554
4FF'^/ 4C'^/ &(4An'^/&)	4cc'^\ 4ff'^\ 4aan'^\ 4ccc'^\)	.
8En\L	(8en/L	.
8F\J	8f/J	.
12A-\L	12a-/L	.
12G-\	12g-/	.
&(12F\J&)	12f/J	.
=555	=555	=555
4BBB-^/ 4BB-^/	4F^/ 4B-^/ 4d-^/ 4f^/)	.
4C\ 4c\	4cc\ (4ccc\	.
4BB-\ 4B-\	4b-\ 4bb-\	.
=556	=556	=556
4FF'^/ 4C'^/ &(4An'^/&)	4an'^\ 4cc'^\ 4ff'^\ 4aan'^\)	.
(8En\L	(8en/L	.
8F\J	8f/J	.
12A-\L	12a-/L	.
12G-\	12g-/	.
12F\J)	12f/J)	.
=557	=557	=557
4BBB-^/ 4BB-^/	4F^/ 4B-^/ 4d-^/ 4f^/	.
4E-\ 4e-\	4ee-\ (4eee-\	.
4D-\ 4d-\	4dd-\ 4ddd-\	.
=558	=558	=558
4FF'^/ 4C'^/ &(4An'^/&)	4cc'^\ 4ff'^\ 4aan'^\ 4ccc'^\)	.
(8En\L	(8en/L	.
8F\J	8f/J	.
12A-\L	12a-/L	.
12G-\	12g-/	.
12F\J)	12f/J)	.
=559	=559	=559
4BBB-^/ 4BB-^/	4F^/ 4B-^/ 4d-^/ 4f^/	.
4C\ 4c\	4cc\ (4ccc\	.
4BB-\ 4B-\	4b-\ 4bb-\	.
=560	=560	=560
4FF'^/ 4C'^/ &(4An'^/&)	4an'^\ 4cc'^\ 4ff'^\ 4aan'^\)	.
8En\L	(8en/L	.
8F\J	8f/J	.
12A-\L	12a-/L	.
12G-\	12g-/	.
12F\J	12f/J	.
=561	=561	=561
&(4F^\&)	4f^/)	.
4d-\	4dd-\ (4ddd-\	.
4c\	4cc\ 4ccc\	.
=562	=562	=562
4FF'^/ 4C'^/ &(4An'^/&)	4an'^\ 4cc'^\ 4ff'^\ 4aan'^\)	.
8BBn/L	(8Bn/L	.
8C/J	8c/J	.
12E-\L	12e-/L	.
12D-\	12d-/	.
12C\J	12c/J	.
=563	=563	=563
4CC^/ &(4C^/&)	4c/)	.
4B-\	(4b-\	.
4An\	4an/	.
=564	=564	=564
4FF'^/ 4C'^/ &(4An'^/&)	4an'^\ 4cc'^\ 4ff'^\ 4aan'^\)	.
8En\L	(8en/L	.
8F\J	8f/J	.
12A-\L	12a-/L	.
12G-\	12g-/	.
12F\J	12f/J	.
=565	=565	=565
&(4F\&)	4f/)	.
4d-\	4dd-\ (4ddd-\	.
4c\	4cc\ 4ccc\	.
=566	=566	=566
4FF^/ 4C^/ &(4An^/&)	4an\ 4cc\ 4ff\ 4aan\)	.
8BBn/L	(8Bn/L	.
8C/J	8c/J	.
12E-\L	12e-/L	.
12D-\	12d-/	.
12C\J	12c/J	.
=567	=567	=567
4CC/ &(4C/&)	4c/)	.
4B-\	(4b-\	.
4An\	4an/	.
=568	=568	=568
4FF'^/ 4C'^/ &(4F'^/&)	4an'^\ 4cc'^\ 4ff'^\ 4aan'^\)	.
8BBn/L	(8Bn/L	.
8C/J	8c/J	.
12E-\L	12e-/L	.
12D-\	12d-/	.
12C\J	12c/J	.
=569	=569	=569
4CC^/ &(4C^/&)	4c^/)	.
4B-\	(4b-\	.
4An\	4an/	.
=570	=570	=570
4FF'^/ 4C'^/ &(4F'^/&)	4an'^\ 4cc'^\ 4ff'^\ 4aan'^\)	.
8BBn/L	(8Bn/L	.
8C/J	8c/J	.
12E-\L	12e-/L	.
12D-\	12d-/	.
12C\J	12c/J	.
=571	=571	=571
4CC^/ &(4C^/&)	4c/)	.
4B-\	(4b-\	.
4An\	4an/	.
=572	=572	=572
4FF'^/ 4C'^/ &(4F'^/&)	4an'^\ 4cc'^\ 4ff'^\ 4aan'^\)	.
*	*clefF4	*clefF4
8BBBn/L	(8BBn/L	.
8CC/J	8C/J	.
12EE-/L	12E-/L	.
12DD-/	12D-/	.
12CC/J	12C/J	.
=573	=573	=573
&(4CC^/&)	4C^/)	.
4BB-'/	(4B-\	.
4AAn'/	4An\	.
=574	=574	=574
&(4FF^/&)	4F^\)	.
8BBBn/L	(8BBn/L	.
8CC/J	8C/J	.
12EE-/L	12E-/L	.
12DD-/	12D-/	.
12CC/J	12C/J	.
=575	=575	=575
&(4CC^/&)	4C^/)	.
4BB-'/	(4B-'\	.
4AAn'/	4An'\	.
=576	=576	=576
&(4FF'^/&)	4F'^\)	.
4r	4r	.
4r	4r	.
=577	=577	=577
2.r	2.r	.
=578	=578	=578
4r	4r	.
8BBBn/L	(8BBn/L	.
8CC/J	8C/J	.
12EE-/L	12E-/L	.
12DD-/	12D-/	.
12CC/J	12C/J	.
=579	=579	=579
&(4CC/&)	4C/)	.
4BB-'/	(4B-'\	.
4AAn'/	4An'\	.
=580	=580	=580
&(4FF'/&)	4F'\)	.
4r	4r	.
4r	4r	.
=581	=581	=581
4r	4r	.
4BBB-/	(4BB-/	pp
4AAAn/	4AAn/	.
=582	=582	=582
&(2.FFF/&)	2.FF/)	.
=583	=583	=583
2.r	2.r	.
*	*clefG2	*clefG2
=584	=584	=584
4r	4r	.
4r	4r	.
12AAn/L	(12An/L	.
12BB-/	12B-/	.
12D-/J	12d-/J	.
=585	=585	=585
&(4F\&)	4f/)	.
4r	4r	.
12AAn/L	(12An/L	.
12BB-/	12B-/	.
12D-/J	12d-/J	.
=586	=586	=586
[2.F\	[2.f/	.
=587	=587	=587
&(2.F\]&)	2.f/])	.
=588	=588	=588
4BBB-'/ 4BB-'/	4B-'/	ff
4r	4r	.
4r	4r	.
*clefG2	*	*
=589	=589	=589
[2.B-/ [2.c/ [2.e-/ [2.g-/ [2.b-/	[2.b-\ [2.gg-\ ([2.bb-\	.
=590	=590	=590
2.B-/] 2.c/] 2.e-/] 2.g-/] 2.b-/]	2.b-\] 2.gg-\] 2.bb-\]	.
=591	=591	=591
4.B-/ 4.c/ 4.e-/ 4.g-/ 4.b-/	4.e-/ 4.cc/ 4.ee-/	.
8B-/ 8c/ 8e-/ 8g-/ 8b-/	8f\ 8cc\ 8ff\	.
4B-/ 4c/ 4e-/ 4g-/ 4b-/	4g-\ 4cc\ 4gg-\	.
=592	=592	=592
4B-'/ 4d-'/ 4f'/ 4b-'/	4f'\ 4dd-'\ 4ff'\)	.
4r	4r	.
*clefF4	*	*
12AAn/L	(12An/L	pp
12BB-/	12B-/	.
12D-/J	12d-/J	.
=593	=593	=593
&(4F\&)	4f/)	.
4r	4r	.
12AAn/L	12An/L	.
12BB-/	(12B-/	.
12D-/J	12d-/J	.
=594	=594	=594
[2.F\	[2.f/	.
=595	=595	=595
&(2.F\]&)	2.f/])	.
=596	=596	=596
4AAA-'/ 4AA-'/	4A-'/	ff
4r	4r	.
4r	4r	.
*clefG2	*	*
=597	=597	=597
[2.A-/ [2.f/ [2.dd-/	[2.a-\ [2.ff\ ([2.aa-\	.
=598	=598	=598
2.A-/] 2.f/] 2.dd-/]	2.a-\] 2.ff\] 2.aa-\]	.
=599	=599	=599
4.A-/ 4.e-/ 4.g-/ 4.a-/	4.e-/ 4.cc/ 4.ee-/	.
8A-/ 8e-/ 8g-/ 8a-/	8f\ 8cc\ 8ff\	.
4A-/ 4e-/ 4g-/ 4a-/	4g-\ 4cc\ 4gg-\	.
=600	=600	=600
4d-'/ 4f'/ 4a-'/	4f'\ 4dd-'\ 4ff'\)	.
4r	4r	.
4r	4r	.
*clefF4	*	*
=601	=601	=601
2F^\ 2c^\ 2f^\	2an\ 2ff\	.
4r	4r	.
=602	=602	=602
2FF^/ 2C^/ 2F^/	2An^/ 2f^/	.
4r	4r	.
=603	=603	=603
([2.FFF^/ [2.FF^/	2.r	.
=604	=604	=604
2.FFF/_ 2.FF/_	2.r	.
=605	=605	=605
4FFF/] 4FF/]	2.r	.
&(4GGG-'/&)) 4GG-'/	.	.
4r	.	.
=606	=606	=606
2.r	2.r	.
=607	=607	=607
2.r	2.r	.
=608	=608	=608
4r	4r	.
4r	4r	.
12AAn/L	(12An/L	pp
12BB-/	12B-/	.
12D-/J	12d-/J	.
=609	=609	=609
&(4F\&)	4f/)	.
4r	4r	.
12AAn/L	(12An/L	.
12BB-/	12B-/	.
12D-/J	12d-/J	.
=610	=610	=610
[2.F\	[2.f/	.
=611	=611	=611
&(2.F\]&)	2.f/])	.
=612	=612	=612
4BBB-'/ 4BB-'/	4B-'/	ff
4r	4r	.
4r	4r	.
*clefG2	*	*
=613	=613	=613
[2.B-/ [2.c/ [2.g-/ [2.b-/	[2.b-\ [2.gg-\ ([2.bb-\	.
=614	=614	=614
4.B-/] 4.c/] 4.e-/ 4.g-/] 4.b-/]	4.b-\] 4.gg-\] 4.bb-\]	.
8B-/ 8c/ 8e-/ 8g-/ 8b-/	8e-/ 8cc/ 8ee-/	.
4B-/ 4c/ 4e-/ 4g-/ 4b-/	4e-/ 4cc/ 4ee-/	.
=615	=615	=615
4.B-/ 4.c/ 4.e-/ 4.g-/ 4.b-/	4.e-/ 4.cc/ 4.ee-/	.
8B-/ 8c/ 8e-/ 8g-/ 8b-/	8f\ 8cc\ 8ff\	.
4B-/ 4c/ 4e-/ 4g-/ 4b-/	4g-\ 4cc\ 4gg-\	.
=616	=616	=616
4B-'/ 4d-'/ 4f'/ 4b-'/	4f'\ 4dd-'\ 4ff'\)	.
4r	4r	.
*clefF4	*	*
12AAn/L	(12An/L	pp
12BB-/	12B-/	.
12D-/J	12d-/J	.
=617	=617	=617
&(4F\&)	4f/)	.
4r	4r	.
12AAn/L	(12An/L	.
12BB-/	12B-/	.
12D-/J	12d-/J	.
=618	=618	=618
[2.F\	[2.f/	.
=619	=619	=619
&(2.F\]&)	2.f/])	.
*	*clefF4	*clefF4
=620	=620	=620
4CCC'/ 4CC'/	4C'/	ff
4r	4r	.
4r	4r	.
*clefG2	*clefG2	*clefG2
=621	=621	=621
[2.c/ [2.f/ [2.a-/ [2.cc/	[2.cc\ [2.aa-\ ([2.ccc\	.
=622	=622	=622
2.c/] 2.f/] 2.a-/] 2.cc/]	2.cc\] 2.aa-\] 2.ccc\]	.
=623	=623	=623
4.c/ 4.en/ 4.b-/ 4.cc/	4.gn\ 4.een\ 4.ggn\	.
8c/ 8e/ 8b-/ 8cc/	8a-\ 8ee\ 8aa-\	.
4c/ 4e/ 4b-/ 4cc/	4b-\ 4ee\ 4bb-\	.
=624	=624	=624
4f'/ 4a-'/ 4cc'/	4a-'\ 4ff'\ 4aa-'\)	.
4r	4r	.
4r	4r	.
*clefF4	*	*
=625	=625	=625
2F^\ 2c^\ 2f^\	2a-\ 2cc\ 2ff\ 2aa-\	.
4r	4r	.
=626	=626	=626
2FF^/ 2C^/ 2F^/	2A-/ 2c/ 2f/ 2a-/	.
4r	4r	.
=627	=627	=627
[2.EEEn^/ [2.EEn^/	2.r	.
=628	=628	=628
2.EEE/] 2.EE/]	2.r	.
*	*clefF4	*clefF4
=629	=629	=629
2.FFF/	2.FF/	.
=630	=630	=630
!!(DDDnq/LL
!!EEE-q/JJ
!!FFFq/)
!!DDnq/LL	.
!!EEnq/JJ	.
!!FFq/	.
[2.EEE-/	[2.EE-/	.
=631	=631	=631
2.EEE-/]	2.EE-/]	.
*	*clefG2	*clefG2
=632	=632	=632
4DDD-'/ 4DD-'/	([2.fff\	ff
4r	.	.
4AA-\ 4A-\	.	.
=633	=633	=633
4F\ &(4d-\&)	4fff\]	.
4r	8eee-\L	.
.	8ddd-\	.
4AA-\ 4A-\	8aa-\	.
.	8ff\J	.
=634	=634	=634
4F\ &(4d-\&)	8eee-\L	.
.	8ddd-\	.
4r	8aa-\	.
.	8ff\	.
4r	8ee-\	.
.	8dd-\J	.
=635	=635	=635
2.r	4a-/)	.
.	4r	.
.	4r	.
=636	=636	=636
4AAA-'/ 4AA-'/	(8cc\L	p
.	8dd-\	.
4r	8ee-\	.
.	8ff\	.
4r	8gg-\	.
.	8aa-\J	.
=637	=637	=637
4Gn\ 4c\ (4g-\	8bb--'\)	.
.	8r	.
&(4A-\&) 4c\ 4g-\	4r	.
4A-\ 4c\ 4g-\)	4r	.
=638	=638	=638
2.r	(8bb--\L	.
.	8aa-\	.
.	8ggn\	.
.	8gg-\	.
.	8ff\	.
.	8ff-\J	.
=639	=639	=639
4B--\ 4c\ (4g-\	8ee-'\)	.
.	8r	.
&(4A-\&) 4c\ 4g-\	4r	.
4A-\ 4c\ 4g-\)	4r	.
=640	=640	=640
4DDD-/ 4DD-/	([2.fff\	.
4r	.	.
4AA-\ 4A-\	.	.
=641	=641	=641
4F\ &(4d-\&)	4fff\]	.
4r	8eee-\L	.
.	8ddd-\	.
4AA-\ 4A-\	8aa-\	.
.	8ff\J	.
=642	=642	=642
4F\ &(4d-\&)	8eee-\L	.
.	8ddd-\	.
4r	8aa-\	.
.	8ff\	.
4r	8ee-\	.
.	8dd-\J)	.
=643	=643	=643
2.r	4a-/	.
.	4r	.
.	4r	.
=644	=644	=644
2.AA-\ 2.E-\ 2.G-\	(8cc\L	.
.	8dd-\	.
.	8ee-\	.
.	8ff\	.
.	8gg-\	.
.	8aa-\J	.
*clefG2	*	*
=645	=645	=645
8c/L	8bb--'\)	.
8d-/	8r	.
8e-/	4r	.
8f/	.	.
8g-/	4r	.
8a-/J	.	.
=646	=646	=646
&(8b--'\&)	(8bb--\L	.
8r	8aa-\	.
4r	8ggn\	.
.	8gg-\	.
4r	8ff\	.
.	8ff-\J	.
*clefF4	*	*
=647	=647	=647
(8B--\L	8ee-'\)	.
8A-\	8r	.
8Gn\	4r	.
8G-\	.	.
8F\	4r	.
8E-\J	.	.
=648	=648	=648
*^	*^	*
8D-\L	(8D-/)	[2.ff/	2.cc-\	.
*v	*v	*	*	*
8A-\	.	.	.
8d-\	.	.	.
8f\	.	.	.
8d-\	.	.	.
8A-\J)	.	.	.
=649	=649	=649	=649
*^	*	*	*
8D-\L	(8D-/	4ff/]	2.cc\	.
*v	*v	*	*	*
8c-\	.	.	.
8d-\	4.ee-/	.	.
8f\	.	.	.
8d-\	.	.	.
8c-\J)	8dd-/	.	.
=650	=650	=650	=650
*^	*	*	*
8G-\L	(4G-/	2.dd-/	2.cc-\	.
8c-\	.	.	.	.
*v	*v	*	*	*
8d-\	.	.	.
8g-\	.	.	.
8d-\	.	.	.
8c-\J)	.	.	.
=651	=651	=651	=651
*^	*	*	*
8D-\L	(8D-/	[2.gg-/	2.b-\	.
*v	*v	*	*	*
8B-\	.	.	.
8d-\	.	.	.
8g-\	.	.	.
8d-\	.	.	.
8B-\J)	.	.	.
=652	=652	=652	=652
*^	*	*	*
8A-\L	(4A-/	2gg-/]	[2.cc-\	.
8c-\	.	.	.	.
*v	*v	*	*	*
8d-\	.	.	.
8a-\	.	.	.
8d-\	4ff/	.	.
8c-\J)	.	.	.
=653	=653	=653	=653
*^	*	*	*
8D-\L	(4D-/	4ff/	2.cc-\]	.
8c-\	.	.	.	.
*v	*v	*	*	*
8d-\	4ee-/	.	.
8f\	.	.	.
8d-\	4dd-/	.	.
8c-\J)	.	.	.
*	*v	*v	*
=654	=654	=654
*^	*	*
8G-\L	(8G-/	2.b-\ 2.dd-\ 2.bb-\	.
*v	*v	*	*
8B-\	.	.
8d-\	.	.
8g-\	.	.
8d-\	.	.
8B-\J)	.	.
=655	=655	=655
*^	*^	*
8F-\L	(8F-/	2bb-/	2.a-\ 2.dd-\	.
*v	*v	*	*	*
8B-\	.	.	.
8d-\	.	.	.
8a-\	.	.	.
8d-\	4bb-/	.	.
8B-\J)	.	.	.
*	*v	*v	*
=656	=656	=656
!!(gnq/LL	.
!!dd-q/JJ	.
*^	*^	*
8E-\L	8E-/	2bb-/)	&([2.dd-\&)	.
*v	*v	*	*	*
8B-\	.	.	.
8d-\	.	.	.
8gn\	.	.	.
8d-\	[4ee-/	.	.
8B-\J	.	.	.
=657	=657	=657	=657
*^	*	*	*
8Gn\L	8Gn/	4ee-/]	2.dd-\]	.
*v	*v	*	*	*
8d-\	.	.	.
8e-\	4.ff/	.	.
8b-\	.	.	.
8e-\	.	.	.
8d-\J	8ee-/	.	.
=658	=658	=658	=658
*^	*	*	*
8A-\L	8A-/	2.ee-/	2.dd-\	.
*v	*v	*	*	*
8d-\	.	.	.
8e-\	.	.	.
8a-\	.	.	.
8e-\	.	.	.
8d-\J	.	.	.
=659	=659	=659	=659
*^	*	*	*
8E-\L	8E-/	[2.aa-/	2.cc\	.
*v	*v	*	*	*
8c\	.	.	.
8e-\	.	.	.
8a-\	.	.	.
8e-\	.	.	.
8c\J	.	.	.
=660	=660	=660	=660
*^	*	*	*
8B-\L	8B-/	4aa-/]	[2.dd-\	.
*v	*v	*	*	*
8d-\	.	.	.
8e-\	4ggn/	.	.
8b-\	.	.	.
8e-\	4ff/	.	.
8d-\J	.	.	.
=661	=661	=661	=661
*^	*	*	*
8E-\L	8E-/	4ggn/	2.dd-\]	.
*v	*v	*	*	*
8d-\	.	.	.
8e-\	4.ff/	.	.
8gn\	.	.	.
8e-\	.	.	.
8d-\J	8ee-/	.	.
=662	=662	=662	=662
*^	*	*	*
8A-\L	8A-/	2.ccc/	2.cc\	.
*v	*v	*	*	*
8c\	.	.	.
8e-\	.	.	.
8a-\	.	.	.
8e-\	.	.	.
8c\J	.	.	.
=663	=663	=663	=663
*^	*	*	*
8G\L	2.Gn/	2ccc/	2.cc\	.
8A-\	.	.	.	.
8c\	.	.	.	.
8e-\	.	.	.	.
8c\	.	4ccc/	.	.
8A-\J	.	.	.	.
*	*	*v	*v	*
=664	=664	=664	=664
8G-\L	2.G-/	([2.ccc/	f
8A-\	.	.	.
8c\	.	.	.
8e-\	.	.	.
8c\	.	.	.
8A-\J	.	.	.
=665	=665	=665	=665
8G-\L	2.G-/	4ccc\]	.
8A-\	.	.	.
8c\	.	4bb-\	.
8e-\	.	.	.
8c\	.	4aa-\	.
8A-\J	.	.	.
=666	=666	=666	=666
8F\L	2.F/	2.aa-\	.
8A-\	.	.	.
8d-\	.	.	.
8f\	.	.	.
8d-\	.	.	.
8A-\J	.	.	.
=667	=667	=667	=667
8F\L	8F/	2.ddd-\	.
*v	*v	*	*
8A-\	.	.
8d-\	.	.
8a-\	.	.
8d-\	.	.
8A-\J	.	.
=668	=668	=668
*^	*	*
8E-\L	8E-/	2ddd-\	.
*v	*v	*	*
8A-\	.	.
8c\	.	.
8g-\	.	.
8c\	4ccc\	.
8A-\J	.	.
=669	=669	=669
*^	*	*
8E-\L	8E-/	4ccc\	.
*v	*v	*	*
8A-\	.	.
8c\	4.bb-\	.
8g-\	.	.
8c\	.	.
8A-\J	8aa-\	.
=670	=670	=670
*^	*	*
8Dn\L	8Dn/	2.fff\	.
*v	*v	*	*
8A-\	.	.
8c-\	.	.
8f\	.	.
8c-\	.	.
8A-\J	.	.
=671	=671	=671
*^	*	*
8Dn\L	8Dn/	2fff\	.
*v	*v	*	*
8A-\	.	.
8B-\	.	.
8f\	.	.
8B-\	4fff\)	.
8A-\J	.	.
=672	=672	=672
*^	*	*
8E-\L	8E-/	(2.fff\	.
*v	*v	*	*
8G-\	.	.
8B-\	.	.
8e-\	.	.
8B-\	.	.
8G-\J	.	.
=673	=673	=673
*^	*	*
8GG-\L	8GG-/	4eee-\	.
*v	*v	*	*
8G-\	.	.
8B-\	4ddd-\	.
8e-\	.	.
8B-\	4bb-\	.
8G-\J	.	.
=674	=674	=674
*^	*	*
8AA-\L	8AA-/	2.ccc\	.
*v	*v	*	*
8F\	.	.
8A-\	.	.
8d-\	.	.
8A-\	.	.
8F\J	.	.
=675	=675	=675
*^	*	*
8AA-\L	8AA-/	4bb-\	.
*v	*v	*	*
8F\	.	.
8A-\	4aa-\	.
8d-\	.	.
8A-\	4ff\	.
8F\J	.	.
=676	=676	=676
*^	*	*
8AA-\L	8AA-/	4bb-\	.
*v	*v	*	*
8G-\	.	.
8A-\	4aa-\	.
8c\	.	.
8A-\	4gg-\	.
8G-\J	.	.
=677	=677	=677
*^	*	*
8AA-\L	4AA-/	4gg-\	.
8G-\	.	.	.
*v	*v	*	*
8A-\	4.ff\	.
8c\	.	.
8A-\	.	.
8G-\J	8een\	.
=678	=678	=678
8D-\L	2.een\	.
8A-\	.	.
8f\	.	.
8d-\	.	.
8B-\J	.	.
8D-/	.	.
=679	=679	=679
*^	*	*
8A-\L	8A-/	2ff\)	.
*v	*v	*	*
8d-\	.	.
8f\	.	.
8a-\	.	.
8f\	([4aa-\	.
8d-\J	.	.
=680	=680	=680
*^	*^	*
8G-\L	2.G-/	2.aa-/]	2a-^\	.
8A-\	.	.	.	.
8c\	.	.	.	.
8e-\	.	.	.	.
8c\	.	.	[4cc^\	.
8A-\J	.	.	.	.
*	*	*v	*v	*
=681	=681	=681	=681
8G-\L	2.G-/	4cc\] 4ccc\	.
8A-\	.	.	.
8c\	.	4.b-\ 4.bb-\	.
8e-\	.	.	.
8c\	.	.	.
8A-\J	.	8a-\ 8aa-\	.
=682	=682	=682	=682
8F\L	2.F/	2.a-\ [2.aa-\	.
8A-\	.	.	.
8d-\	.	.	.
8f\	.	.	.
8d-\	.	.	.
8A-\J	.	.	.
=683	=683	=683	=683
8F\L	8F/	2.dd-\ 2.aa-\] 2.ddd-\	.
*v	*v	*	*
8A-\	.	.
8d-\	.	.
8a-\	.	.
8d-\	.	.
8A-\J	.	.
=684	=684	=684
*	*^	*
8E-\L 8E-/	2gg-/ 2aa-/	4.dd-\ 4.ddd-\	.
8A-\	.	.	.
8c\	.	.	.
8g-\	.	8cc\ 8ccc\	.
8c\	4ryy	4cc\ 4gg-\ 4aa-\ 4ccc\	.
8A-\J	.	.	.
*	*v	*v	*
=685	=685	=685
*^	*	*
8E-\L	8E-/	4.cc\ 4.gg-\ 4.aa-\ 4.ccc\	.
*v	*v	*	*
8A-\	.	.
8c\	.	.
8g-\	8b-\ 8gg-\ 8bb-\	.
8c\	4a-\ 4gg-\ 4aa-\	.
8A-\J	.	.
=686	=686	=686
*^	*	*
8Dn\L	8Dn/	2.ff\ 2.aa-\ 2.fff\	.
*v	*v	*	*
8A-\	.	.
8c-\	.	.
8f\	.	.
8c-\	.	.
8A-\J	.	.
=687	=687	=687
*^	*	*
8Dn\L	8Dn/	2ff\ 2aa-\ 2fff\	.
*v	*v	*	*
8A-\	.	.
8B-\	.	.
8f\	.	.
8B-\	4ff\ 4aa-\ 4fff\)	.
8A-\J	.	.
=688	=688	=688
*^	*	*
8E-\L	8E-/	2.ff\ 2.aa-\ (2.fff\	.
*v	*v	*	*
8G-\	.	.
8B-\	.	.
8e-\	.	.
8B-\	.	.
8G-\J	.	.
=689	=689	=689
*^	*	*
8GG-\L	8GG-/	4ee-\ 4gg-\ 4eee-\	.
*v	*v	*	*
8G-\	.	.
8B-\	4.dd-\ 4.gg-\ 4.ddd-\	.
8e-\	.	.
8B-\	.	.
8G-\J	8b-\ 8gg-\ 8bb-\	.
=690	=690	=690
*^	*	*
8AA-\L	8AA-/	2.cc\ 2.aa-\ 2.ccc\	.
*v	*v	*	*
8F\	.	.
8A-\	.	.
8d-\	.	.
8A-\	.	.
8F\J	.	.
=691	=691	=691
*^	*	*
8AA-\L	8AA-/	4b-\ 4gg-\ 4bb-\	.
*v	*v	*	*
8F\	.	.
8A-\	4a-\ 4ff\ 4aa-\	.
8d-\	.	.
8A-\	4b-\ 4ff\ 4bb-\	.
8F\J	.	.
=692	=692	=692
*^	*	*
8AA-\L	8AA-/	2cc-\ 2ff\ 2ccc-\	.
*v	*v	*	*
8F\	.	.
8A-\	.	.
8dn\	.	.
8A-\	4b-\ 4ff\ 4bb-\	.
8F\J	.	.
=693	=693	=693
*^	*	*
8AA-\L	8AA-/	[2.cc-\ [2.ff\ [2.ccc-\	.
*v	*v	*	*
8F\	.	.
8A-\	.	.
8dn\	.	.
8A-\	.	.
8F\J	.	.
=694	=694	=694
*^	*	*
8AA-\L	8AA-/	2cc-\] 2ff\] 2ccc-\]	.
*v	*v	*	*
8F\	.	.
8A-\	.	.
8dn\	.	.
8A-\	4b-\ 4ff\ 4bb-\	.
8F\J	.	.
=695	=695	=695
*^	*	*
8AA-\L	8AA-/	4cc-\ 4ff\ 4ccc-\	.
*v	*v	*	*
8F\	.	.
8A-\	4b-\ 4ff\ 4bb-\	.
8dn\	.	.
8A-\	4cc-\ 4ff\ 4ccc-\)	.
8F\J	.	.
=696	=696	=696
*^	*	*
8AA-\L	8AA-/	2cc-\ 2gg-\ (2ccc-\	.
*v	*v	*	*
8E-\	.	.
8G-\	.	.
8e-\	.	.
8G-\	4b-\ 4gg-\ 4bb-\	.
8E-\J	.	.
=697	=697	=697
*^	*	*
8AA-\L	8AA-/	2.dd-\ [2.ggn\ [2.ddd-\	.
*v	*v	*	*
8E-\	.	.
8Gn\	.	.
8en\	.	.
8G\	.	.
8E-\J	.	.
=698	=698	=698
*^	*	*
8AA-\L	8AA-/	2dd-\ 2gg\] 2ddd-\]	.
*v	*v	*	*
8E-\	.	.
8Gn\	.	.
8en\	.	.
8G\	4cc\ 4ggn\ 4ccc\	.
8E-\J	.	.
=699	=699	=699
*^	*	*
8AA-\L	8AA-/	4dd-\ 4ggn\ 4ddd-\	.
*v	*v	*	*
8E-\	.	.
8Gn\	4cc\ 4gg\ 4ccc\	.
8en\	.	.
8G\	4dd-\ 4gg\ 4ddd-\)	.
8E-\J	.	.
=700	=700	=700
*^	*	*
8AA-\L	8AA-/	2dd-\ 2aa-\ 2ddd-\	.
*v	*v	*	*
8F\	.	.
8A-\	.	.
8f\	.	.
8A-\	4cc\ 4aa-\ 4ccc\	.
8F\J	.	.
=701	=701	=701
*^	*	*
8AA-\L	8AA-/	2ee-\ 2aan\ 2eee-\	.
*v	*v	*	*
8E-\	.	.
8G-\	.	.
8c\	.	.
8G-\	4ee-\ 4aa\ 4eee-\	.
8E-\J	.	.
=702	=702	=702
*^	*	*
8AA-\L	8AA-/	2ee-\ 2aa-\ (2eee-\	.
*v	*v	*	*
8C-\	.	.
8F\	.	.
8c-\	.	.
8F\	4ddn\ 4aa-\ 4dddn\	.
8C-\J	.	.
=703	=703	=703
*^	*	*
8AA-\L	8AA-/	2ff\ 2ccc-\ 2fff\	.
*v	*v	*	*
8F\	.	.
8A-\	.	.
8dn\	.	.
8A-\	4ff\ 4ccc-\ 4fff\)	.
8F\J	.	.
=704	=704	=704
*^	*	*
8AA-\L	8AA-/	2ff\ 2bb-\ (2fff\	.
*v	*v	*	*
8D-\	.	.
8Gn\	.	.
8d-\	.	.
8G\	4een\ 4bb-\ 4eeen\	.
8D-\J	.	.
=705	=705	=705
*^	*	*
8AA-\L	8AA-/	2ggn\ 2ddd-\ 2gggn\	.
*v	*v	*	*
8F\	.	.
8B-\	.	.
8f-\	.	.
8B-\	4gg\ 4ddd-\ 4ggg\	.
8F\J	.	.
=706	=706	=706
*^	*	*
8AA-\L	8AA-/	2ggn\ 2ccc\ 2gggn\	.
*v	*v	*	*
8E-\	.	.
8G-\	.	.
8e-\	.	.
8G-\	4aa-\ 4ccc\ 4aaa-\	.
8E-\J	.	.
=707	=707	=707
*^	*	*
8AA-\L	8AA-/	2bb--\ 2ccc\ 2bbb--\	.
*v	*v	*	*
8E-\	.	.
8G-\	.	.
8c\	.	.
8G-\	4cc\ 4gg-\ 4ccc\	.
8E-\J	.	.
=708	=708	=708
4DD-'/	4dd-'\ 4ff'\ 4ddd-'\)	ff
4r	4r	.
(8AA-/L	4r	.
8F/J	.	.
=709	=709	=709
4d-\)	8f^\L	.
.	8dd-\	.
4r	8aa-\	.
.	8f\	.
4r	8dd-\	.
.	8bb-\J	.
=710	=710	=710
4AAA-'/	4cc'\ &(4aa-'\&)	.
4r	4r	.
(8AA-/L	4r	.
8E-/J	.	.
=711	=711	=711
4c\)	8g-^\L	.
.	8cc\	.
4r	8aa-\	.
.	8g-\	.
4r	8cc\	.
.	8aa-\J	.
=712	=712	=712
4DD-'/	4dd-'\ &(4ff'\&)	.
4r	4r	.
(8AA-/L	4r	.
8F/J	.	.
=713	=713	=713
4d-\)	8f^\L	.
.	8dd-\	.
4r	8aa-\	.
.	8f\	.
4r	8dd-\	.
.	8bb-\J	.
=714	=714	=714
4AAA-'/	4cc'\ &(4aa-'\&)	.
4r	4r	.
(8AA-/L	4r	.
8E-/J	.	.
=715	=715	=715
4c\)	8g-^\L	.
.	8cc\	.
4r	8aa-\	.
.	8g-\	.
4r	8cc\	.
.	&(8aa-\J&)	.
=716	=716	=716
*k[f#c#g#]	*k[f#c#g#]	*k[f#c#g#]
!!(cc#q/	.
4AAA/ 4AA/	(4ccc#\)	ff
4DD#/ 4D#/	8bb\L	.
.	8aa\	.
&(4EE/&) 4E/	8ee\	.
.	8cc#\J	.
=717	=717	=717
2.EE^/ 2.E^/	8bb\L	.
.	8aa\	.
.	8ee\	.
.	8cc#\	.
.	8b\	.
.	8a\J	.
=718	=718	=718
4r	8e/L	.
.	8c#/	.
(4DD#/	8B/	.
.	8A/J	.
4EE/	4E/)	.
*	*clefF4	*clefF4
=719	=719	=719
2AAA/ 2FFn/	2Fn\ 2fn\	.
4AAA/ 4EE/)	4E\ &(4e\&)	.
*	*clefG2	*clefG2
=720	=720	=720
!!(cc#q/	.
4AAA/ 4AA/	(4ccc#\)	.
4DD#/ 4D#/	8bb\L	.
.	8aa\	.
&(4EE/&) 4E/	8ee\	.
.	8cc#\J	.
=721	=721	=721
2.EE^/ 2.E^/	8bb\L	.
.	8aa\	.
.	8ee\	.
.	8cc#\	.
.	8b\	.
.	8a\J	.
=722	=722	=722
4r	8e/L	.
.	8c#/	.
(4DD#/	8B/	.
.	8A/J	.
4EE/	4E/)	.
*	*clefF4	*clefF4
=723	=723	=723
2AAA/ 2FFn/	2Fn\ 2fn\	.
4AAA/) 4EE/	4E\ &(4e\&)	.
=724	=724	=724
*k[b-e-a-d-g-]	*k[b-e-a-d-g-]	*k[b-e-a-d-g-]
4AAAn/ 4FF/	4F\ 4f\	.
*	*clefG2	*clefG2
4r	(8F/L	.
.	8An/	.
4AAA/ 4AAn/	8d-/	.
.	8f/J	.
=725	=725	=725
&(4FF/&) 4F/	4dd-\ 4ff\)	.
4r	(8F/L	.
.	8An/	.
4AAAn/ 4AAn/	8d-/	.
.	8f/J	.
=726	=726	=726
&(4FF/&) 4F/	4dd-\ 4ff\)	.
4r	(8F/L	.
.	8B-/	.
4BBB-/ 4BB-/	8d-/	.
.	8f/J	.
=727	=727	=727
&(4FF/&) 4F/	4dd-\ 4ff\)	.
4r	(8F/L	.
.	8B-/	.
4BBB-/ 4BB-/	8dn/	.
.	8f/J	.
=728	=728	=728
&(4FF/&) 4F/	4ddn\ 4ff\)	.
4r	(8G-/L	.
.	8B-/	.
4BBB-/ 4BB-/	8dn/	.
.	8g-/J	.
=729	=729	=729
&(4GG-/&) 4G-/	4ddn\ 4gg-\)	.
4r	(8G-/L	.
.	8B-/	.
4BBB-/ 4BB-/	8e-/	.
.	8g-/J	.
=730	=730	=730
&(4GG-/&) 4G-/	4ee-\ 4gg-\)	.
4r	(8Gn/L	.
.	8d-/	.
4BBB--/ 4BB--/	8en/	.
.	8gn/J	.
=731	=731	=731
4BB--\ 4B--\	4een\ 4ggn\)	.
4r	(8a-\L	.
.	8dd-\	.
4AAA-/ 4AA-/	8ff\	.
.	[8aa-\J	.
=732	=732	=732
4F'\ 4A-'\ 4d-'\ 4f'\	4aa-'\] 4ddd-'\ 4fff'\ 4aaa-'\)	.
4r	4r	.
12C\L	(12c/L	f
12D-\	12d-/	.
12F\J	12f/J	.
=733	=733	=733
&(4A-\&)	4a-/)	.
4r	4r	.
12BBn\L	(12Bn/L	.
12C\	12c/	.
12F\J	12f/J	.
=734	=734	=734
&(4A-\&)	4a-/)	.
4r	4r	.
12AAn/L	(12An/L	.
12BB-/	12B-/	.
12F/J	12f/J	.
=735	=735	=735
&(4A-\&)	4a-/)	.
4r	4r	.
4r	4r	.
=736	=736	=736
4AAA-'/ 4AA-'/	4A-'/	.
4r	4r	.
4r	4r	.
*clefG2	*	*
=737	=737	=737
[2.g-\ [2.cc\ [2.ff\	[2.a-\ [2.ff\ ([2.aa-\	.
=738	=738	=738
4g-\] 4cc\] 4ff\]	4a-\] 4ff\] 4aa-\]	.
4g-\ 4cc\ 4ee-\	4a-\ 4ee-\ 4aa-\	.
4g-\ 4cc\ 4ff\	4a-\ 4ff\ 4aa-\	.
=739	=739	=739
4g-\ 4cc\ 4ee-\	4a-\ 4ee-\ 4aa-\	.
4g-\ 4cc\ 4ff\	4a-\ 4ff\ 4aa-\	.
4g-\ 4cc\ 4ee-\	4a-\ 4ee-\ 4aa-\	.
=740	=740	=740
4f'\ 4a-'\ 4dd-'\ 4ff'\	4a-'\ 4dd-'\ 4aa-'\)	.
4r	4r	.
*clefF4	*	*
12C\L	(12c/L	.
12D-\	12d-/	.
12F\J	12f/J	.
=741	=741	=741
&(4A-\&)	4a-/)	.
4r	4r	.
12BBn\L	(12Bn/L	.
12C\	12c/	.
12F\J	12f/J	.
=742	=742	=742
&(4A-\&)	4a-/)	.
4r	4r	.
12AAn/L	(12An/L	.
12BB-/	12B-/	.
12F/J	12f/J	.
=743	=743	=743
&(4A-\&)	4a-/)	.
4r	4r	.
4r	4r	.
=744	=744	=744
4AAA-'/ 4AA-'/	4A-'/	.
4r	4r	.
4r	4r	.
*clefG2	*	*
=745	=745	=745
[2.g-\ [2.cc\ [2.ff\	[2.a-\ [2.ff\ ([2.aa-\	.
=746	=746	=746
4g-\] 4cc\] 4ff\]	4a-\] 4ff\] 4aa-\]	.
4g-\ 4cc\ 4ee-\	4a-\ 4ee-\ 4aa-\	.
4g-\ 4cc\ 4ff\	4a-\ 4ff\ 4aa-\	.
=747	=747	=747
4g-\ 4cc\ 4ee-\	4a-\ 4ee-\ 4aa-\	.
4g-\ 4cc\ 4ff\	4a-\ 4ff\ 4aa-\	.
4g-\ 4cc\ 4ee-\	4a-\ 4ee-\ 4aa-\	.
=748	=748	=748
*^	*^	*
(2ff/	2.g-\ 2.cc\	2ff\	2.a-/ 2.aa-/	.
4ee-/)	.	4ee-\)	.	.
=749	=749	=749	=749	=749
2ff/	2.g-\ 2.cc\	2ff\	2.an/ (2.aan/	.
&(4ee-/&)	.	4ee-\	.	.
=750	=750	=750	=750	=750
(2ff/	2.g-\ 2.cc\	2ff\	2.an/ 2.aan/	.
4ee-/)	.	4ee-\)	.	.
=751	=751	=751	=751	=751
2gg-/	2.gn\ 2.dd-\	2gg-\	2.b-/ (2.bb-/	.
&(4ff-/&)	.	4ff-\	.	.
=752	=752	=752	=752	=752
(2gg-/	2.gn\ 2.dd-\	2gg-\	2.b-/ 2.bb-/	.
4ff-/)	.	4ff-\)	.	.
=753	=753	=753	=753	=753
2ggn/	2.a-\ 2.ddn\	2ggn\	2.bn/ (2.bbn/	.
&(4ffn/&)	.	4ffn\	.	.
=754	=754	=754	=754	=754
(2ggn/	2.a-\ 2.ddn\	2ggn\	2.bn/ 2.bbn/	.
4ff/)	.	4ff\)	.	.
=755	=755	=755	=755	=755
(2aa-/	2.a-\ 2.ee-\	(2aa-\	2.cc/ 2.ccc/	.
4gg-/)	.	4gg-\)	.	.
*v	*v	*	*	*
*clefF4	*	*	*
*	*v	*v	*
=756	=756	=756
4DD-'/ 4D-'/	(4fff\	ff
4GGn'/	8eee-\L	.
.	8ddd-\	.
4AA-'/	8aa-\	.
.	8ff\J	.
=757	=757	=757
4AA-'/	8eee-\L	.
.	8ddd-\	.
4GG-'/ 4G-'/	8aa-\	.
.	8ff\	.
4FF'/ 4F'/	8ee-\	.
.	8dd-\J	.
=758	=758	=758
4FF'/ 4F'/	8a-/L	.
.	8f/	.
(4GGn/	8e-/	.
.	8d-/J	.
4AA-/	4A-'/)	.
=759	=759	=759
*	*^	*
2BB--/	2.f\	2B--/ 2b--/	.
4AA-/)	.	4A-/ &(4a-/&)	.
*	*v	*v	*
=760	=760	=760
4DD-'/ 4D-'/	(4fff\	.
4GGn'/	8eee-\L	.
.	8ddd-\	.
4AA-'/	8aa-\	.
.	8ff\J	.
=761	=761	=761
4AA-'/	8eee-\L	.
.	8ddd-\	.
4GG-'/ 4G-'/	8aa-\	.
.	8ff\	.
4FF'/ 4F'/	8ee-\	.
.	8dd-\J	.
=762	=762	=762
4FF'/ 4F'/	8a-/L	.
.	8f/	.
(4GGn/	8e-/	.
.	8d-/J	.
4AA-/	4A-'/)	.
=763	=763	=763
*	*^	*
2BB--/	2.f\	2B--/ 2b--/	.
4AA-/)	.	4A-/ &(4a-/&)	.
*	*v	*v	*
=764	=764	=764
4DD-'/ 4D-'/	4A-'/ 4f'/ 4a-'/	.
4GGn'/	4r	.
4AA-'/	4r	.
=765	=765	=765
4r	2B--/ (2b--/	.
(4GG-/ 4G-/	.	.
4FF/) 4F/	4A-/ 4a-/)	.
=766	=766	=766
4DD-'/ 4D-'/	4A-'/ 4f'/ 4a-'/	.
4GGn'/	4r	.
4AA-'/	4r	.
=767	=767	=767
4r	2B--/ (2b--/	.
(4GG-/ 4G-/	.	.
4FF/) 4F/	4A-/ 4a-/)	.
=768	=768	=768
4DD-'/ 4D-'/	4A-'/ 4f'/ 4a-'/	.
4GGn'/	4r	.
4AA-'/	4r	.
=769	=769	=769
4r	2B--/ (2b--/	.
(4GG-/ 4G-/	.	.
4FF/) 4F/	4A-/ 4a-/)	.
=770	=770	=770
4DD-'/ 4BB--'/	4B--'/ 4f'/ 4b--'/	.
4DD-'/ 4AA-'/	4A-'/ 4f'/ 4a-'/	.
4DD-'/ 4BB--'/	4B--'/ 4f'/ 4b--'/	.
=771	=771	=771
4DD-'/ 4AA-'/	4A-'/ 4f'/ 4a-'/	.
4DD-'/ 4BB--'/	4B--'/ 4f'/ 4b--'/	.
4DD-'/ 4AA-'/	4A-'/ 4f'/ 4a-'/	.
=772	=772	=772
4CC'/ 4AAn'/	4An'/ 4f'/ 4an'/	.
4r	4r	.
4r	4r	.
=773	=773	=773
4CC^/ 4GGn^/ 4C^/	4c^/ 4en^/ 4b-^/ 4cc^/	.
4r	4r	.
4r	4r	.
=774	=774	=774
4FF^/ 4C^/ 4F^/	4an\ 4cc\ 4ff\ 4aan\	.
4r	4r	.
4r	4r	.
=775	=775	=775
4AA-^\ 4E-^\ 4A-^\	4g-^\ 4a-^\ 4cc^\ 4ee-^\ 4gg-^\ 4aa-^\	.
4r	4r	.
4r	4r	.
=776	=776	=776
2.D-^\ 2.A-^\ 2.d-^\	2.f^\ 2.a-^\ 2.dd-^\ 2.ff^\	.
=777	=777	=777
2.r	2.r	.
=778	=778	=778
2.DD-^/ 2.AA-^/ 2.D-^/	2.F^/ 2.A-^/ 2.d-^/ 2.f^/	.
=779	=779	=779
2.r	2.r	.
=780	=780	=780
2.DDD-;/ 2.DD-;/	2.fff;\	.
==	==	==
*-	*-	*-
!!!ENC: Craig Stuart Sapp
!!!END: 2004/06/06
!!!ONB: Basic conversion from SharpEye
